luts/Filmemulation_Rec709_zu_Rec709.cube
# Filmemulation Negativ + Kopierfilm (rec709 -> Rec.709), frei gerechnet
# Erzeugt von lut_filmemulation_log_zu_rec709.py
LUT_3D_SIZE 33
0.030328 0.030327 0.030328
0.030345 0.030327 0.030328
0.030702 0.030327 0.030328
0.034216 0.030327 0.030328
0.047544 0.030327 0.030328
0.071278 0.030327 0.030328
0.103262 0.030327 0.030328
0.142573 0.030327 0.030328
0.188341 0.030327 0.030328
0.239317 0.030327 0.030328
0.293899 0.030327 0.030328
0.350315 0.030327 0.030328
0.406820 0.030327 0.030328
0.461882 0.030327 0.030328
0.514292 0.030327 0.030328
0.563211 0.030327 0.030328
0.608146 0.030327 0.030328
0.652014 0.030327 0.030328
0.697024 0.030327 0.030328
0.741715 0.030327 0.030328
0.784563 0.030327 0.030328
0.824180 0.030327 0.030328
0.859496 0.030327 0.030328
0.889884 0.030327 0.030328
0.915174 0.030327 0.030328
0.935596 0.030327 0.030328
0.951658 0.030326 0.030328
0.964010 0.030326 0.030328
0.973339 0.030326 0.030328
0.980286 0.030326 0.030328
0.985407 0.030326 0.030328
0.989158 0.030326 0.030328
0.991895 0.030326 0.030328
0.030328 0.030346 0.030328
0.030342 0.030343 0.030328
0.030643 0.030341 0.030328
0.033687 0.030340 0.030328
0.045923 0.030338 0.030328
0.068491 0.030337 0.030328
0.099211 0.030337 0.030328
0.137121 0.030336 0.030328
0.181415 0.030336 0.030328
0.230942 0.030335 0.030328
0.284212 0.030335 0.030328
0.339539 0.030334 0.030328
0.395241 0.030334 0.030328
0.449809 0.030334 0.030328
0.502022 0.030333 0.030328
0.551005 0.030333 0.030328
0.596217 0.030333 0.030328
0.640559 0.030333 0.030328
0.686272 0.030333 0.030328
0.731881 0.030332 0.030328
0.775820 0.030332 0.030328
0.816633 0.030332 0.030328
0.853168 0.030332 0.030328
0.884721 0.030332 0.030328
0.911065 0.030331 0.030328
0.932393 0.030331 0.030328
0.949202 0.030331 0.030328
0.962149 0.030331 0.030328
0.971939 0.030331 0.030328
0.979236 0.030330 0.030328
0.984618 0.030330 0.030328
0.988561 0.030330 0.030328
0.991440 0.030330 0.030328
0.030328 0.030737 0.030328
0.030340 0.030683 0.030328
0.030595 0.030639 0.030328
0.033231 0.030606 0.030328
0.044437 0.030581 0.030328
0.065884 0.030561 0.030328
0.095400 0.030545 0.030328
0.131975 0.030532 0.030328
0.174854 0.030521 0.030328
0.222977 0.030511 0.030328
0.274954 0.030503 0.030328
0.329191 0.030496 0.030328
0.384065 0.030489 0.030328
0.438094 0.030484 0.030328
0.490055 0.030479 0.030328
0.539042 0.030474 0.030328
0.584471 0.030470 0.030328
0.629229 0.030466 0.030328
0.675586 0.030461 0.030328
0.722060 0.030457 0.030328
0.767048 0.030452 0.030328
0.809026 0.030448 0.030328
0.846765 0.030443 0.030328
0.879479 0.030438 0.030328
0.906880 0.030433 0.030328
0.929124 0.030429 0.030328
0.946691 0.030424 0.030328
0.960244 0.030420 0.030328
0.970505 0.030416 0.030328
0.978159 0.030412 0.030328
0.983808 0.030408 0.030328
0.987949 0.030405 0.030328
0.990973 0.030401 0.030328
0.030328 0.034635 0.030328
0.030338 0.034157 0.030328
0.030560 0.033743 0.030328
0.032892 0.033429 0.030328
0.043266 0.033184 0.030328
0.063788 0.032987 0.030328
0.092317 0.032825 0.030328
0.127800 0.032689 0.030328
0.169513 0.032573 0.030328
0.216470 0.032473 0.030328
0.267362 0.032385 0.030328
0.320666 0.032309 0.030328
0.374815 0.032240 0.030328
0.428354 0.032179 0.030328
0.480060 0.032124 0.030328
0.529006 0.032074 0.030328
0.574576 0.032028 0.030328
0.619643 0.031983 0.030328
0.666505 0.031936 0.030328
0.713678 0.031886 0.030328
0.759527 0.031835 0.030328
0.802478 0.031783 0.030328
0.841231 0.031729 0.030328
0.874935 0.031676 0.030328
0.903243 0.031622 0.030328
0.926276 0.031570 0.030328
0.944499 0.031518 0.030328
0.958579 0.031468 0.030328
0.969250 0.031420 0.030328
0.977216 0.031374 0.030328
0.983099 0.031331 0.030328
0.987413 0.031291 0.030328
0.990564 0.031253 0.030328
0.030328 0.049046 0.030328
0.030337 0.047637 0.030328
0.030534 0.046359 0.030328
0.032633 0.045345 0.030328
0.042326 0.044521 0.030328
0.062070 0.043837 0.030328
0.089780 0.043258 0.030328
0.124354 0.042760 0.030328
0.165094 0.042326 0.030328
0.211070 0.041944 0.030328
0.261039 0.041604 0.030328
0.313542 0.041300 0.030328
0.367056 0.041025 0.030328
0.420152 0.040776 0.030328
0.471610 0.040548 0.030328
0.520490 0.040339 0.030328
0.566150 0.040147 0.030328
0.611453 0.039956 0.030328
0.658717 0.039751 0.030328
0.706460 0.039535 0.030328
0.753028 0.039309 0.030328
0.796798 0.039074 0.030328
0.836417 0.038832 0.030328
0.870970 0.038585 0.030328
0.900062 0.038335 0.030328
0.923780 0.038084 0.030328
0.942575 0.037835 0.030328
0.957116 0.037590 0.030328
0.968146 0.037350 0.030328
0.976386 0.037118 0.030328
0.982475 0.036897 0.030328
0.986940 0.036686 0.030328
0.990204 0.036489 0.030328
0.030328 0.074225 0.030328
0.030336 0.071834 0.030328
0.030514 0.069633 0.030328
0.032428 0.067862 0.030328
0.041553 0.066405 0.030328
0.060635 0.065181 0.030328
0.087649 0.064133 0.030328
0.121453 0.063223 0.030328
0.161366 0.062423 0.030328
0.206504 0.061712 0.030328
0.255678 0.061075 0.030328
0.307483 0.060500 0.030328
0.360437 0.059977 0.030328
0.413132 0.059499 0.030328
0.464354 0.059061 0.030328
0.513155 0.058656 0.030328
0.558869 0.058281 0.030328
0.604354 0.057905 0.030328
0.651945 0.057502 0.030328
0.700165 0.057073 0.030328
0.747339 0.056620 0.030328
0.791813 0.056146 0.030328
0.832178 0.055655 0.030328
0.867470 0.055148 0.030328
0.897248 0.054631 0.030328
0.921568 0.054108 0.030328
0.940869 0.053581 0.030328
0.955817 0.053057 0.030328
0.967165 0.052540 0.030328
0.975649 0.052034 0.030328
0.981919 0.051544 0.030328
0.986520 0.051075 0.030328
0.989883 0.050629 0.030328
0.030328 0.108049 0.030328
0.030335 0.104579 0.030328
0.030498 0.101371 0.030328
0.032263 0.098780 0.030328
0.040907 0.096641 0.030328
0.059414 0.094838 0.030328
0.085828 0.093290 0.030328
0.118970 0.091943 0.030328
0.158168 0.090755 0.030328
0.202578 0.089698 0.030328
0.251059 0.088749 0.030328
0.302249 0.087890 0.030328
0.354702 0.087107 0.030328
0.407033 0.086391 0.030328
0.458034 0.085733 0.030328
0.506747 0.085124 0.030328
0.552493 0.084559 0.030328
0.598122 0.083993 0.030328
0.645983 0.083384 0.030328
0.694606 0.082735 0.030328
0.742302 0.082048 0.030328
0.787385 0.081329 0.030328
0.828405 0.080581 0.030328
0.864348 0.079808 0.030328
0.894733 0.079018 0.030328
0.919589 0.078214 0.030328
0.939340 0.077405 0.030328
0.954652 0.076597 0.030328
0.966285 0.075796 0.030328
0.974986 0.075011 0.030328
0.981420 0.074248 0.030328
0.986142 0.073514 0.030328
0.989594 0.072816 0.030328
0.030328 0.149625 0.030328
0.030334 0.144958 0.030328
0.030485 0.140633 0.030328
0.032127 0.137130 0.030328
0.040357 0.134232 0.030328
0.058359 0.131785 0.030328
0.084250 0.129681 0.030328
0.116812 0.127847 0.030328
0.155386 0.126229 0.030328
0.199157 0.124786 0.030328
0.247025 0.123489 0.030328
0.297668 0.122315 0.030328
0.349671 0.121245 0.030328
0.401669 0.120264 0.030328
0.452461 0.119362 0.030328
0.501085 0.118527 0.030328
0.546845 0.117753 0.030328
0.592587 0.116975 0.030328
0.640676 0.116138 0.030328
0.689645 0.115245 0.030328
0.737796 0.114301 0.030328
0.783415 0.113311 0.030328
0.825014 0.112279 0.030328
0.861537 0.111214 0.030328
0.892465 0.110122 0.030328
0.917801 0.109012 0.030328
0.937957 0.107892 0.030328
0.953597 0.106772 0.030328
0.965488 0.105663 0.030328
0.974386 0.104573 0.030328
0.980968 0.103512 0.030328
0.985800 0.102491 0.030328
0.989333 0.101518 0.030328
0.030328 0.197993 0.030328
0.030334 0.192075 0.030328
0.030474 0.186574 0.030328
0.032013 0.182106 0.030328
0.039884 0.178402 0.030328
0.057437 0.175268 0.030328
0.082864 0.172570 0.030328
0.114915 0.170215 0.030328
0.152936 0.168134 0.030328
0.196139 0.166277 0.030328
0.243461 0.164606 0.030328
0.293612 0.163092 0.030328
0.345208 0.161712 0.030328
0.396901 0.160446 0.030328
0.447496 0.159279 0.030328
0.496029 0.158200 0.030328
0.541794 0.157198 0.030328
0.587627 0.156191 0.030328
0.635909 0.155107 0.030328
0.685178 0.153950 0.030328
0.733730 0.152726 0.030328
0.779825 0.151441 0.030328
0.821941 0.150101 0.030328
0.858985 0.148717 0.030328
0.890403 0.147297 0.030328
0.916174 0.145852 0.030328
0.936697 0.144393 0.030328
0.952636 0.142933 0.030328
0.964761 0.141485 0.030328
0.973838 0.140061 0.030328
0.980555 0.138675 0.030328
0.985488 0.137339 0.030328
0.989094 0.136066 0.030328
0.030328 0.251732 0.030328
0.030333 0.244603 0.030328
0.030465 0.237951 0.030328
0.031916 0.232533 0.030328
0.039470 0.228030 0.030328
0.056622 0.224212 0.030328
0.081635 0.220920 0.030328
0.113230 0.218041 0.030328
0.150757 0.215493 0.030328
0.193452 0.213218 0.030328
0.240282 0.211168 0.030328
0.289988 0.209309 0.030328
0.341213 0.207612 0.030328
0.392624 0.206055 0.030328
0.443035 0.204619 0.030328
0.491478 0.203290 0.030328
0.537237 0.202055 0.030328
0.583145 0.200813 0.030328
0.631592 0.199476 0.030328
0.681126 0.198047 0.030328
0.730033 0.196534 0.030328
0.776554 0.194944 0.030328
0.819137 0.193287 0.030328
0.856652 0.191572 0.030328
0.888515 0.189811 0.030328
0.914683 0.188018 0.030328
0.935542 0.186206 0.030328
0.951753 0.184391 0.030328
0.964093 0.182590 0.030328
0.973335 0.180817 0.030328
0.980176 0.179090 0.030328
0.985200 0.177424 0.030328
0.988875 0.175834 0.030328
0.030328 0.309032 0.030328
0.030333 0.300827 0.030328
0.030457 0.293142 0.030328
0.031833 0.286860 0.030328
0.039106 0.281625 0.030328
0.055895 0.277175 0.030328
0.080535 0.273331 0.030328
0.111721 0.269963 0.030328
0.148802 0.266979 0.030328
0.191038 0.264310 0.030328
0.237422 0.261902 0.030328
0.286724 0.259716 0.030328
0.337608 0.257719 0.030328
0.388759 0.255885 0.030328
0.438997 0.254192 0.030328
0.487350 0.252624 0.030328
0.533098 0.251165 0.030328
0.579066 0.249698 0.030328
0.627658 0.248116 0.030328
0.677425 0.246426 0.030328
0.726651 0.244634 0.030328
0.773557 0.242750 0.030328
0.816563 0.240783 0.030328
0.854507 0.238747 0.030328
0.886777 0.236654 0.030328
0.913308 0.234520 0.030328
0.934476 0.232363 0.030328
0.950939 0.230199 0.030328
0.963476 0.228049 0.030328
0.972870 0.225931 0.030328
0.979826 0.223866 0.030328
0.984935 0.221873 0.030328
0.988672 0.219968 0.030328
0.030328 0.367912 0.030328
0.030333 0.358846 0.030328
0.030450 0.350318 0.030328
0.031760 0.343322 0.030328
0.038783 0.337473 0.030328
0.055242 0.332490 0.030328
0.079544 0.328175 0.030328
0.110358 0.324387 0.030328
0.147036 0.321026 0.030328
0.188855 0.318015 0.030328
0.234832 0.315296 0.030328
0.283763 0.312823 0.030328
0.334334 0.310562 0.030328
0.385243 0.308483 0.030328
0.435316 0.306563 0.030328
0.483583 0.304783 0.030328
0.529315 0.303125 0.030328
0.575333 0.301457 0.030328
0.624051 0.299657 0.030328
0.674027 0.297732 0.030328
0.723539 0.295690 0.030328
0.770794 0.293539 0.030328
0.814186 0.291293 0.030328
0.852525 0.288965 0.030328
0.885170 0.286570 0.030328
0.912036 0.284125 0.030328
0.933489 0.281650 0.030328
0.950183 0.279166 0.030328
0.962904 0.276694 0.030328
0.972439 0.274257 0.030328
0.979501 0.271878 0.030328
0.984689 0.269579 0.030328
0.988484 0.267380 0.030328
0.030328 0.426465 0.030328
0.030332 0.416799 0.030328
0.030445 0.407667 0.030328
0.031696 0.400147 0.030328
0.038494 0.393840 0.030328
0.054651 0.388452 0.030328
0.078644 0.383775 0.030328
0.109120 0.379663 0.030328
0.145430 0.376006 0.030328
0.186867 0.372726 0.030328
0.232472 0.369759 0.030328
0.281062 0.367058 0.030328
0.331342 0.364585 0.030328
0.382025 0.362309 0.030328
0.431944 0.360205 0.030328
0.480127 0.358252 0.030328
0.525839 0.356433 0.030328
0.571898 0.354600 0.030328
0.620727 0.352621 0.030328
0.670890 0.350502 0.030328
0.720662 0.348252 0.030328
0.768237 0.345881 0.030328
0.811984 0.343402 0.030328
0.850685 0.340828 0.030328
0.883675 0.338178 0.030328
0.910852 0.335470 0.030328
0.932569 0.332726 0.030328
0.949480 0.329967 0.030328
0.962371 0.327219 0.030328
0.972037 0.324507 0.030328
0.979197 0.321856 0.030328
0.984459 0.319291 0.030328
0.988309 0.316836 0.030328
0.030328 0.483058 0.030328
0.030332 0.473066 0.030328
0.030439 0.463585 0.030328
0.031639 0.455746 0.030328
0.038234 0.449151 0.030328
0.054113 0.443502 0.030328
0.077823 0.438587 0.030328
0.107988 0.434256 0.030328
0.143961 0.430399 0.030328
0.185048 0.426933 0.030328
0.230309 0.423793 0.030328
0.278583 0.420932 0.030328
0.328594 0.418309 0.030328
0.379066 0.415892 0.030328
0.428839 0.413655 0.030328
0.476940 0.411577 0.030328
0.522630 0.409640 0.030328
0.568723 0.407687 0.030328
0.617650 0.405575 0.030328
0.667982 0.403313 0.030328
0.717992 0.400908 0.030328
0.765859 0.398371 0.030328
0.809936 0.395715 0.030325
0.848979 0.392956 0.030319
0.882299 0.390111 0.030311
0.909772 0.387200 0.030303
0.931742 0.384246 0.030297
0.948857 0.381274 0.030293
0.961910 0.378309 0.030291
0.971698 0.375380 0.030291
0.978949 0.372513 0.030293
0.984277 0.369735 0.030295
0.988175 0.367074 0.030298
0.030328 0.536455 0.030328
0.030332 0.526391 0.030328
0.030435 0.516801 0.030328
0.031589 0.508843 0.030328
0.037998 0.502126 0.030328
0.053621 0.496357 0.030328
0.077070 0.491326 0.030328
0.106950 0.486885 0.030328
0.142611 0.482922 0.030328
0.183375 0.479355 0.030328
0.228317 0.476120 0.030328
0.276299 0.473167 0.030328
0.326058 0.470457 0.030328
0.376333 0.467958 0.030328
0.425966 0.465642 0.030328
0.473989 0.463489 0.030328
0.519655 0.461480 0.030328
0.565776 0.459453 0.030328
0.614795 0.457259 0.030323
0.665294 0.454907 0.030310
0.715542 0.452404 0.030290
0.763706 0.449760 0.030263
0.808112 0.446990 0.030234
0.847490 0.444108 0.030204
0.881127 0.441134 0.030178
0.908882 0.438086 0.030157
0.931091 0.434990 0.030142
0.948400 0.431871 0.030134
0.961604 0.428755 0.030130
0.971506 0.425673 0.030131
0.978841 0.422653 0.030134
0.984230 0.419723 0.030140
0.988171 0.416913 0.030147
0.030328 0.585842 0.030328
0.030332 0.575923 0.030328
0.030431 0.566433 0.030328
0.031543 0.558528 0.030328
0.037783 0.551836 0.030328
0.053169 0.546074 0.030328
0.076375 0.541039 0.030328
0.105991 0.536585 0.030328
0.141365 0.532604 0.030328
0.181829 0.529015 0.030328
0.226476 0.525755 0.030328
0.274185 0.522776 0.030328
0.323709 0.520039 0.030328
0.373798 0.517512 0.030328
0.423305 0.515169 0.030323
0.471264 0.512988 0.030310
0.516925 0.510951 0.030291
0.563094 0.508894 0.030264
0.612223 0.506667 0.030229
0.662892 0.504276 0.030185
0.713372 0.501729 0.030134
0.761814 0.499036 0.030078
0.806528 0.496212 0.030023
0.846219 0.493270 0.029972
0.880152 0.490230 0.029928
0.908173 0.487112 0.029894
0.930606 0.483940 0.029871
0.948097 0.480740 0.029857
0.961442 0.477540 0.029852
0.971452 0.474370 0.029853
0.978866 0.471261 0.029859
0.984312 0.468241 0.029869
0.988293 0.465341 0.029880
0.030333 0.630797 0.030323
0.030332 0.621189 0.030328
0.030427 0.611963 0.030328
0.031502 0.604252 0.030328
0.037586 0.597706 0.030328
0.052752 0.592056 0.030328
0.075733 0.587108 0.030328
0.105104 0.582723 0.030328
0.140211 0.578798 0.030328
0.180395 0.575254 0.030328
0.224772 0.572031 0.030324
0.272236 0.569082 0.030314
0.321558 0.566370 0.030296
0.371496 0.563862 0.030269
0.420908 0.561536 0.030235
0.468821 0.559368 0.030195
0.514482 0.557342 0.030149
0.560697 0.555295 0.030096
0.609925 0.553076 0.030031
0.660753 0.550692 0.029958
0.711446 0.548150 0.029877
0.760149 0.545460 0.029794
0.805149 0.542635 0.029714
0.845133 0.539690 0.029641
0.879346 0.536643 0.029581
0.907616 0.533514 0.029534
0.930261 0.530327 0.029502
0.947924 0.527108 0.029483
0.961402 0.523886 0.029476
0.971513 0.520689 0.029478
0.979002 0.517550 0.029486
0.984502 0.514498 0.029499
0.988521 0.511563 0.029515
0.030411 0.674276 0.030245
0.030390 0.665139 0.030270
0.030462 0.656330 0.030289
0.031489 0.648944 0.030302
0.037411 0.642656 0.030309
0.052353 0.637216 0.030310
0.075111 0.632442 0.030307
0.104243 0.628204 0.030300
0.139093 0.624403 0.030288
0.179016 0.620966 0.030270
0.223138 0.617837 0.030243
0.270370 0.614971 0.030207
0.319496 0.612331 0.030161
0.369284 0.609889 0.030107
0.418596 0.607620 0.030044
0.466460 0.605505 0.029975
0.512120 0.603526 0.029903
0.558379 0.601525 0.029822
0.607704 0.599354 0.029729
0.658689 0.597019 0.029625
0.709597 0.594528 0.029515
0.758561 0.591889 0.029403
0.803852 0.589114 0.029297
0.844133 0.586219 0.029202
0.878629 0.583219 0.029124
0.907153 0.580135 0.029064
0.930014 0.576990 0.029022
0.947852 0.573809 0.028998
0.961468 0.570621 0.028988
0.971683 0.567455 0.028989
0.979248 0.564342 0.028999
0.984803 0.561311 0.029015
0.988862 0.558394 0.029035
0.030589 0.718446 0.030068
0.030550 0.709958 0.030110
0.030601 0.701743 0.030146
0.031575 0.694832 0.030174
0.037324 0.688931 0.030190
0.052025 0.683812 0.030193
0.074545 0.679311 0.030184
0.103423 0.675307 0.030166
0.138001 0.671710 0.030138
0.177641 0.668453 0.030099
0.221488 0.665483 0.030048
0.268468 0.662759 0.029985
0.317379 0.660247 0.029910
0.367002 0.657921 0.029826
0.416203 0.655758 0.029733
0.464011 0.653739 0.029635
0.509665 0.651849 0.029534
0.555968 0.649935 0.029424
0.605396 0.647858 0.029300
0.656548 0.645622 0.029163
0.707686 0.643234 0.029020
0.756933 0.640701 0.028878
0.802538 0.638035 0.028743
0.843142 0.635249 0.028624
0.877947 0.632360 0.028524
0.906749 0.629385 0.028448
0.929846 0.626348 0.028395
0.947876 0.623272 0.028363
0.961643 0.620185 0.028349
0.971973 0.617115 0.028349
0.979624 0.614092 0.028360
0.985241 0.611146 0.028378
0.989343 0.608306 0.028400
0.030859 0.761832 0.029797
0.030807 0.754154 0.029852
0.030842 0.746695 0.029902
0.031765 0.740397 0.029941
0.037335 0.735004 0.029964
0.051780 0.730315 0.029966
0.074046 0.726182 0.029951
0.102654 0.722497 0.029921
0.136940 0.719182 0.029875
0.176279 0.716176 0.029815
0.219830 0.713431 0.029739
0.266538 0.710909 0.029648
0.315217 0.708582 0.029543
0.364660 0.706423 0.029428
0.413737 0.704414 0.029304
0.461481 0.702538 0.029175
0.507125 0.700779 0.029044
0.553471 0.698997 0.028904
0.603004 0.697062 0.028747
0.654332 0.694975 0.028576
0.705715 0.692744 0.028399
0.755262 0.690376 0.028223
0.801204 0.687880 0.028057
0.842156 0.685269 0.027910
0.877295 0.682557 0.027788
0.906398 0.679762 0.027694
0.929752 0.676903 0.027627
0.947993 0.674005 0.027585
0.961925 0.671091 0.027565
0.972381 0.668190 0.027561
0.980126 0.665329 0.027571
0.985812 0.662537 0.027589
0.989964 0.659842 0.027613
0.031204 0.802958 0.029452
0.031144 0.796209 0.029515
0.031167 0.789628 0.029573
0.032042 0.784053 0.029619
0.037429 0.779266 0.029646
0.051605 0.775092 0.029645
0.073605 0.771406 0.029621
0.101927 0.768114 0.029577
0.135905 0.765146 0.029514
0.174923 0.762451 0.029431
0.218159 0.759986 0.029330
0.264576 0.757720 0.029211
0.313005 0.755625 0.029076
0.362251 0.753680 0.028930
0.411193 0.751868 0.028774
0.458862 0.750174 0.028614
0.504491 0.748585 0.028454
0.550877 0.746974 0.028283
0.600518 0.745222 0.028092
0.652027 0.743331 0.027886
0.703666 0.741308 0.027673
0.753531 0.739158 0.027462
0.799831 0.736889 0.027263
0.841154 0.734512 0.027087
0.876651 0.732040 0.026940
0.906077 0.729489 0.026825
0.929709 0.726877 0.026741
0.948178 0.724224 0.026687
0.962290 0.721554 0.026658
0.972884 0.718891 0.026649
0.980733 0.716261 0.026655
0.986495 0.713692 0.026671
0.990703 0.711208 0.026695
0.031594 0.840542 0.029062
0.031532 0.834781 0.029126
0.031548 0.829145 0.029188
0.032380 0.824355 0.029236
0.037581 0.820231 0.029263
0.051477 0.816628 0.029257
0.073197 0.813438 0.029223
0.101221 0.810584 0.029164
0.134875 0.808008 0.029083
0.173555 0.805665 0.028978
0.216456 0.803519 0.028851
0.262563 0.801543 0.028705
0.310724 0.799715 0.028541
0.359757 0.798017 0.028365
0.408550 0.796432 0.028179
0.456135 0.794950 0.027989
0.501740 0.793558 0.027798
0.548162 0.792145 0.027597
0.597909 0.790608 0.027373
0.649605 0.788948 0.027132
0.701508 0.787169 0.026883
0.751706 0.785276 0.026637
0.798382 0.783277 0.026405
0.840098 0.781181 0.026198
0.875974 0.778997 0.026023
0.905746 0.776741 0.025885
0.929675 0.774428 0.025783
0.948388 0.772076 0.025715
0.962695 0.769705 0.025674
0.973439 0.767337 0.025656
0.981401 0.764996 0.025656
0.987248 0.762705 0.025668
0.991518 0.760487 0.025688
0.031997 0.873660 0.028659
0.031938 0.868883 0.028720
0.031953 0.864194 0.028779
0.032745 0.860198 0.028826
0.037759 0.856749 0.028850
0.051365 0.853730 0.028838
0.072793 0.851052 0.028792
0.100506 0.848653 0.028718
0.133821 0.846483 0.028619
0.172147 0.844507 0.028493
0.214696 0.842696 0.028343
0.260474 0.841026 0.028170
0.308349 0.839479 0.027979
0.357154 0.838041 0.027774
0.405782 0.836698 0.027560
0.453271 0.835440 0.027341
0.498846 0.834258 0.027123
0.545298 0.833058 0.026893
0.595147 0.831751 0.026638
0.647030 0.830338 0.026363
0.699205 0.828823 0.026080
0.749746 0.827209 0.025798
0.796814 0.825503 0.025533
0.838940 0.823711 0.025295
0.875216 0.821844 0.025093
0.905352 0.819911 0.024931
0.929596 0.817928 0.024809
0.948569 0.815908 0.024723
0.963083 0.813869 0.024669
0.973988 0.811831 0.024641
0.982073 0.809813 0.024631
0.988012 0.807836 0.024636
0.992350 0.805920 0.024651
0.032384 0.901836 0.028272
0.032331 0.897979 0.028327
0.032347 0.894183 0.028381
0.033103 0.890940 0.028423
0.037930 0.888136 0.028442
0.051237 0.885676 0.028421
0.072364 0.883491 0.028364
0.099754 0.881530 0.028276
0.132717 0.879756 0.028159
0.170674 0.878137 0.028014
0.212855 0.876652 0.027842
0.258287 0.875281 0.027647
0.305859 0.874011 0.027432
0.354418 0.872828 0.027201
0.402869 0.871723 0.026961
0.450249 0.870687 0.026717
0.495782 0.869714 0.026474
0.542256 0.868724 0.026218
0.592204 0.867646 0.025934
0.644272 0.866479 0.025628
0.696721 0.865227 0.025312
0.747612 0.863892 0.024998
0.795084 0.862480 0.024701
0.837636 0.860995 0.024433
0.874327 0.859446 0.024204
0.904844 0.857841 0.024017
0.929419 0.856192 0.023875
0.948666 0.854511 0.023772
0.963400 0.852812 0.023703
0.974475 0.851112 0.023662
0.982691 0.849427 0.023642
0.988728 0.847774 0.023638
0.993140 0.846170 0.023646
0.032733 0.925034 0.027923
0.032687 0.921993 0.027971
0.032708 0.918994 0.028016
0.033430 0.916427 0.028052
0.038070 0.914202 0.028065
0.051070 0.912248 0.028036
0.071885 0.910511 0.027968
0.098943 0.908949 0.027867
0.131544 0.907534 0.027735
0.169118 0.906243 0.027573
0.210917 0.905057 0.027383
0.255988 0.903961 0.027168
0.303241 0.902945 0.026932
0.351540 0.901998 0.026679
0.399797 0.901113 0.026417
0.447056 0.900283 0.026151
0.492537 0.899502 0.025887
0.539025 0.898708 0.025608
0.589063 0.897842 0.025298
0.641313 0.896905 0.024965
0.694035 0.895898 0.024620
0.745281 0.894824 0.024277
0.793165 0.893687 0.023951
0.836153 0.892490 0.023655
0.873274 0.891241 0.023400
0.904185 0.889945 0.023191
0.929102 0.888612 0.023028
0.948635 0.887253 0.022907
0.963597 0.885878 0.022823
0.974852 0.884500 0.022769
0.983204 0.883133 0.022739
0.989345 0.881791 0.022725
0.993835 0.880487 0.022725
0.033031 0.943578 0.027625
0.032994 0.941228 0.027664
0.033019 0.938906 0.027701
0.033709 0.936915 0.027730
0.038164 0.935188 0.027737
0.050850 0.933669 0.027700
0.071347 0.932316 0.027623
0.098064 0.931100 0.027511
0.130294 0.929996 0.027366
0.167475 0.928988 0.027191
0.208880 0.928062 0.026985
0.253577 0.927206 0.026754
0.300498 0.926411 0.026501
0.348522 0.925670 0.026231
0.396573 0.924977 0.025951
0.443699 0.924327 0.025667
0.489116 0.923715 0.025384
0.535606 0.923093 0.025086
0.585728 0.922414 0.024755
0.638152 0.921678 0.024399
0.691145 0.920888 0.024029
0.742746 0.920044 0.023660
0.791047 0.919150 0.023308
0.834479 0.918208 0.022988
0.872037 0.917224 0.022710
0.903353 0.916204 0.022480
0.928624 0.915153 0.022298
0.948450 0.914080 0.022161
0.963649 0.912994 0.022063
0.975089 0.911905 0.021996
0.983582 0.910823 0.021954
0.989831 0.909761 0.021931
0.994402 0.908728 0.021922
0.033276 0.958026 0.027380
0.033246 0.956237 0.027411
0.033276 0.954468 0.027441
0.033934 0.952949 0.027464
0.038206 0.951630 0.027465
0.050575 0.950468 0.027422
0.070748 0.949433 0.027336
0.097120 0.948502 0.027215
0.128973 0.947656 0.027061
0.165754 0.946883 0.026875
0.206756 0.946172 0.026658
0.251070 0.945515 0.026414
0.297647 0.944905 0.026147
0.345384 0.944336 0.025864
0.393218 0.943803 0.025570
0.440198 0.943303 0.025271
0.485542 0.942833 0.024974
0.532026 0.942353 0.024661
0.582220 0.941831 0.024313
0.634811 0.941264 0.023938
0.688069 0.940655 0.023548
0.740023 0.940005 0.023157
0.788740 0.939315 0.022783
0.832620 0.938588 0.022442
0.870623 0.937829 0.022143
