luts/Filmemulation_Rec709_zu_Rec709.cube
# Filmemulation Negativ + Kopierfilm (rec709 -> Rec.709), frei gerechnet
# Erzeugt von lut_filmemulation_log_zu_rec709.py
LUT_3D_SIZE 5
0.030328 0.030327 0.030328
0.188341 0.030327 0.030328
0.608146 0.030327 0.030328
0.915174 0.030327 0.030328
0.991895 0.030326 0.030328
0.030328 0.197993 0.030328
0.152936 0.168134 0.030328
0.541794 0.157198 0.030328
0.890403 0.147297 0.030328
0.989094 0.136066 0.030328
0.030333 0.630797 0.030323
0.140211 0.578798 0.030328
0.514482 0.557342 0.030149
0.879346 0.536643 0.029581
0.988521 0.511563 0.029515
0.032733 0.925034 0.027923
0.131544 0.907534 0.027735
0.492537 0.899502 0.025887
0.873274 0.891241 0.023400
0.993835 0.880487 0.022725
0.033920 0.993441 0.026736
0.120640 0.991558 0.026268
0.463395 0.990669 0.023977
0.860025 0.989738 0.020691
0.995128 0.988500 0.019448
0.030328 0.030327 0.185239
0.177909 0.030326 0.178916
0.589997 0.030326 0.176414
0.908866 0.030326 0.174043
0.991196 0.030326 0.171213
0.030328 0.170470 0.149467
0.144207 0.144206 0.144206
0.523168 0.134647 0.142128
0.882516 0.126019 0.140161
0.988172 0.116264 0.137816
0.030328 0.583200 0.136671
0.132129 0.529918 0.131813
0.495721 0.508265 0.129855
0.870428 0.487554 0.127652
0.987170 0.462690 0.125424
0.032635 0.909120 0.123073
0.123857 0.888440 0.118487
0.473672 0.879008 0.115026
0.863548 0.869346 0.110923
0.992264 0.856828 0.108257
0.034048 0.991731 0.109292
0.113888 0.989419 0.104792
0.445148 0.988328 0.100967
0.849891 0.987185 0.096096
0.993964 0.985668 0.092964
0.030328 0.030327 0.601283
0.173741 0.030326 0.590117
0.582436 0.030326 0.585591
0.906141 0.030326 0.581237
0.990890 0.030326 0.575966
0.030328 0.160074 0.532400
0.140729 0.135225 0.520987
0.515465 0.126201 0.516375
0.879119 0.118067 0.511957
0.987770 0.108883 0.506620
0.030328 0.563122 0.503986
0.128913 0.509612 0.492597
0.488075 0.488004 0.487935
0.866830 0.467406 0.483081
0.986835 0.442769 0.477696
0.033085 0.901717 0.474219
0.121286 0.879614 0.462879
0.466538 0.869563 0.456571
0.860153 0.859285 0.449673
0.992396 0.845998 0.443736
0.034711 0.990916 0.440708
0.111836 0.988398 0.429200
0.438432 0.987211 0.422420
0.846474 0.985969 0.414623
0.994435 0.984318 0.408090
0.030328 0.030327 0.912996
0.169857 0.030326 0.909007
0.575223 0.030326 0.907351
0.903484 0.030326 0.905740
0.990591 0.030326 0.903760
0.030328 0.150706 0.886140
0.137494 0.127158 0.881120
0.508149 0.118625 0.879039
0.875814 0.110942 0.877018
0.987376 0.102277 0.874537
0.030332 0.543913 0.873293
0.125923 0.490355 0.867813
0.480846 0.468854 0.865418
0.863378 0.448426 0.862664
0.986560 0.424077 0.859858
0.033631 0.894202 0.856645
0.119037 0.870692 0.850673
0.459949 0.860031 0.846358
0.857051 0.849151 0.841252
0.992738 0.835115 0.837578
0.035578 0.990074 0.837295
0.110211 0.987346 0.830334
0.432408 0.986060 0.825173
0.843534 0.984715 0.818760
0.995302 0.982928 0.814034
0.030328 0.030326 0.991981
0.165370 0.030326 0.991523
0.566683 0.030326 0.991331
0.900265 0.030326 0.991144
0.990227 0.030326 0.990913
0.030328 0.140272 0.988809
0.133763 0.118202 0.988194
0.499524 0.110225 0.987937
0.871816 0.103052 0.987686
0.986896 0.094974 0.987376
0.030328 0.521165 0.987220
0.122476 0.467758 0.986526
0.472237 0.446465 0.986154
0.858946 0.426312 0.985369
0.985943 0.402385 0.984909
0.033689 0.884706 0.982154
0.115867 0.859467 0.981394
0.451458 0.848065 0.979256
0.852349 0.836455 0.976209
0.992144 0.821518 0.975055
0.035885 0.988989 0.977653
0.107618 0.985991 0.976325
0.424441 0.984579 0.973470
0.838848 0.983101 0.969205
0.995128 0.981139 0.967150
