luts/Filmemulation_Rec709_zu_Rec709.cube
# Filmemulation Negativ + Kopierfilm (rec709 -> Rec.709), frei gerechnet
# Erzeugt von lut_filmemulation_log_zu_rec709.py
LUT_3D_SIZE 9
0.030328 0.030327 0.030328
0.047544 0.030327 0.030328
0.188341 0.030327 0.030328
0.406820 0.030327 0.030328
0.608146 0.030327 0.030328
0.784563 0.030327 0.030328
0.915174 0.030327 0.030328
0.973339 0.030326 0.030328
0.991895 0.030326 0.030328
0.030328 0.049046 0.030328
0.042326 0.044521 0.030328
0.165094 0.042326 0.030328
0.367056 0.041025 0.030328
0.566150 0.040147 0.030328
0.753028 0.039309 0.030328
0.900062 0.038335 0.030328
0.968146 0.037350 0.030328
0.990204 0.036489 0.030328
0.030328 0.197993 0.030328
0.039884 0.178402 0.030328
0.152936 0.168134 0.030328
0.345208 0.161712 0.030328
0.541794 0.157198 0.030328
0.733730 0.152726 0.030328
0.890403 0.147297 0.030328
0.964761 0.141485 0.030328
0.989094 0.136066 0.030328
0.030328 0.426465 0.030328
0.038494 0.393840 0.030328
0.145430 0.376006 0.030328
0.331342 0.364585 0.030328
0.525839 0.356433 0.030328
0.720662 0.348252 0.030328
0.883675 0.338178 0.030328
0.962371 0.327219 0.030328
0.988309 0.316836 0.030328
0.030333 0.630797 0.030323
0.037586 0.597706 0.030328
0.140211 0.578798 0.030328
0.321558 0.566370 0.030296
0.514482 0.557342 0.030149
0.711446 0.548150 0.029877
0.879346 0.536643 0.029581
0.961402 0.523886 0.029476
0.988521 0.511563 0.029515
0.031204 0.802958 0.029452
0.037429 0.779266 0.029646
0.135905 0.765146 0.029514
0.313005 0.755625 0.029076
0.504491 0.748585 0.028454
0.703666 0.741308 0.027673
0.876651 0.732040 0.026940
0.962290 0.721554 0.026658
0.990703 0.711208 0.026695
0.032733 0.925034 0.027923
0.038070 0.914202 0.028065
0.131544 0.907534 0.027735
0.303241 0.902945 0.026932
0.492537 0.899502 0.025887
0.694035 0.895898 0.024620
0.873274 0.891241 0.023400
0.963597 0.885878 0.022823
0.993835 0.880487 0.022725
0.033618 0.977288 0.027038
0.038153 0.973679 0.027079
0.126181 0.971425 0.026633
0.291747 0.969859 0.025659
0.478092 0.968676 0.024413
0.681502 0.967431 0.022886
0.867348 0.965810 0.021354
0.962928 0.963928 0.020543
0.995277 0.962019 0.020301
0.033920 0.993441 0.026736
0.037749 0.992284 0.026736
0.120640 0.991558 0.026268
0.280269 0.991052 0.025266
0.463395 0.990669 0.023977
0.668096 0.990265 0.022364
0.860025 0.989738 0.020691
0.960715 0.989124 0.019762
0.995128 0.988500 0.019448
0.030328 0.030327 0.047121
0.045986 0.030327 0.046161
0.181690 0.030327 0.045638
0.395705 0.030327 0.045303
0.596699 0.030326 0.045063
0.776177 0.030326 0.044823
0.911233 0.030326 0.044526
0.971997 0.030326 0.044202
0.991459 0.030326 0.043894
0.030328 0.044919 0.041850
0.041102 0.041102 0.041102
0.159141 0.039293 0.040698
0.356453 0.038237 0.040439
0.554446 0.037532 0.040255
0.743851 0.036866 0.040071
0.895509 0.036101 0.039844
0.966557 0.035339 0.039598
0.989684 0.034681 0.039364
0.030328 0.180199 0.039407
0.038843 0.162099 0.038775
0.147365 0.152640 0.038435
0.334946 0.146733 0.038219
0.530023 0.142587 0.038065
0.724123 0.138482 0.037911
0.885472 0.133503 0.037722
0.963012 0.128179 0.037516
0.988520 0.123221 0.037322
0.030328 0.396908 0.038027
0.037568 0.365280 0.037468
0.140101 0.348094 0.037168
0.321317 0.337124 0.036977
0.514056 0.329311 0.036842
0.710786 0.321486 0.036707
0.878488 0.311869 0.036541
0.960511 0.301433 0.036361
0.987695 0.291568 0.036191
0.030328 0.600899 0.037131
0.036740 0.567133 0.036622
0.135052 0.547970 0.036350
0.311678 0.535427 0.036177
0.502590 0.526341 0.035990
0.701186 0.517110 0.035679
0.873715 0.505586 0.035288
0.959192 0.492850 0.035032
0.987623 0.480586 0.034908
0.031019 0.781608 0.035615
0.036484 0.756215 0.035339
0.130705 0.741165 0.034997
0.303058 0.731050 0.034478
0.492367 0.723589 0.033826
0.692981 0.715892 0.033008
0.870591 0.706112 0.032185
0.959759 0.695077 0.031770
0.989533 0.684223 0.031669
0.032591 0.915293 0.033127
0.037234 0.903232 0.032883
0.126558 0.895827 0.032382
0.293552 0.890739 0.031506
0.480496 0.886927 0.030426
0.683202 0.882940 0.029109
0.867061 0.877795 0.027787
0.961058 0.871879 0.027087
0.992725 0.865943 0.026875
0.033567 0.974045 0.031277
0.037506 0.969957 0.030985
0.121520 0.967406 0.030389
0.282447 0.965635 0.029346
0.466264 0.964297 0.028059
0.670614 0.962890 0.026470
0.861052 0.961058 0.024825
0.960473 0.958933 0.023888
0.994349 0.956779 0.023542
0.033907 0.992401 0.030221
0.037227 0.991084 0.029934
0.116232 0.990257 0.029338
0.271288 0.989681 0.028275
0.451722 0.989245 0.026949
0.657086 0.988785 0.025277
0.853542 0.988185 0.023495
0.958223 0.987487 0.022444
0.994258 0.986777 0.022035
0.030328 0.030327 0.185239
0.045123 0.030327 0.181168
0.177909 0.030326 0.178916
0.389295 0.030326 0.177461
0.589997 0.030326 0.176414
0.771195 0.030326 0.175356
0.908866 0.030326 0.174043
0.971187 0.030326 0.172598
0.991196 0.030326 0.171213
0.030328 0.042814 0.161724
0.040431 0.039398 0.158094
0.155763 0.037804 0.156089
0.350356 0.036883 0.154793
0.547617 0.036273 0.153862
0.738415 0.035699 0.152921
0.892777 0.035046 0.151752
0.965598 0.034399 0.150468
0.989369 0.033847 0.149237
0.030328 0.170470 0.149467
0.038277 0.153211 0.146078
0.144207 0.144206 0.144206
0.329053 0.138588 0.142997
0.523168 0.134647 0.142128
0.718440 0.130747 0.141250
0.882516 0.126019 0.140161
0.961957 0.120967 0.138964
0.988172 0.116264 0.137816
0.030328 0.380108 0.141915
0.037067 0.349145 0.138678
0.137080 0.332374 0.136891
0.315567 0.321690 0.135736
0.507202 0.314090 0.134906
0.704951 0.306486 0.134069
0.875380 0.297151 0.133029
0.959388 0.287034 0.131886
0.987324 0.277483 0.130791
0.030328 0.583200 0.136671
0.036283 0.549159 0.133541
0.132129 0.529918 0.131813
0.306034 0.517352 0.130697
0.495721 0.508265 0.129855
0.695195 0.499046 0.128882
0.870428 0.487554 0.127652
0.957951 0.474875 0.126456
0.987170 0.462690 0.125424
0.030990 0.768473 0.130871
0.036037 0.742112 0.128037
0.127830 0.726540 0.126285
0.297451 0.716096 0.124868
0.485441 0.708403 0.123578
0.686815 0.700476 0.122111
0.867122 0.690419 0.120463
0.958398 0.679090 0.119128
0.988990 0.667965 0.118144
0.032635 0.909120 0.123073
0.036898 0.896299 0.120354
0.123857 0.888440 0.118487
0.288145 0.883046 0.116736
0.473672 0.879008 0.115026
0.677001 0.874788 0.113063
0.863548 0.869346 0.110923
0.959737 0.863095 0.109323
0.992264 0.856828 0.108257
0.033685 0.971964 0.115554
0.037300 0.967570 0.112861
0.119028 0.964829 0.110939
0.277291 0.962927 0.109039
0.459593 0.961492 0.107133
0.664409 0.959981 0.104903
0.857512 0.958016 0.102447
0.959225 0.955737 0.100627
0.994020 0.953427 0.099448
0.034048 0.991731 0.109292
0.037094 0.990310 0.106675
0.113888 0.989419 0.104792
0.266320 0.988797 0.102897
0.445148 0.988328 0.100967
0.650816 0.987832 0.098671
0.849891 0.987185 0.096096
0.956952 0.986433 0.094184
0.993964 0.985668 0.092964
0.030328 0.030327 0.400608
0.044576 0.030327 0.393757
0.175478 0.030326 0.389933
0.385137 0.030326 0.387451
0.585608 0.030326 0.385658
0.767904 0.030326 0.383840
0.907292 0.030326 0.381578
0.970646 0.030326 0.379082
0.991019 0.030326 0.376676
0.030328 0.041555 0.359953
0.040010 0.038395 0.353440
0.153593 0.036937 0.349816
0.346408 0.036100 0.347461
0.543156 0.035548 0.345763
0.734829 0.035031 0.344045
0.890962 0.034446 0.341905
0.964958 0.033869 0.339543
0.989159 0.033379 0.337273
0.030328 0.164363 0.337696
0.037923 0.147642 0.331408
0.142177 0.138927 0.327911
0.325241 0.133492 0.325640
0.518694 0.129681 0.324004
0.714697 0.125911 0.322349
0.880553 0.121342 0.320287
0.961253 0.116462 0.318013
0.987940 0.111922 0.315829
0.030328 0.369325 0.323603
0.036754 0.338824 0.317470
0.135141 0.322338 0.314061
0.311848 0.311848 0.311849
0.502732 0.304392 0.310256
0.701110 0.296937 0.308643
0.873316 0.287791 0.306635
0.958640 0.277887 0.304422
0.987076 0.268545 0.302296
0.030328 0.571558 0.313642
0.036000 0.537387 0.307626
0.130252 0.518122 0.304281
0.302385 0.505561 0.302114
0.491268 0.496486 0.300503
0.691305 0.487288 0.298747
0.868321 0.475833 0.296543
0.957206 0.463209 0.294278
0.986947 0.451091 0.292220
0.031062 0.759624 0.303005
0.035834 0.732644 0.297317
0.126066 0.716742 0.293962
0.293931 0.706090 0.291494
0.481056 0.698252 0.289442
0.682917 0.690183 0.287196
0.864999 0.679954 0.284577
0.957679 0.668444 0.282179
0.988814 0.657156 0.280181
0.032831 0.904882 0.289187
0.036850 0.891547 0.283643
0.122289 0.883383 0.280191
0.284840 0.877783 0.277396
0.469441 0.873594 0.274923
0.673167 0.869217 0.272180
0.861483 0.863576 0.269066
0.959133 0.857101 0.266409
0.992234 0.850614 0.264341
0.033962 0.970521 0.275164
0.037373 0.965917 0.269674
0.117635 0.963046 0.266182
0.274190 0.961054 0.263247
0.455505 0.959551 0.260581
0.660614 0.957970 0.257571
0.855470 0.955913 0.254141
0.958712 0.953528 0.251268
0.994121 0.951112 0.249096
0.034346 0.991266 0.262816
0.037221 0.989773 0.257438
0.112598 0.988836 0.254008
0.263348 0.988184 0.251092
0.441133 0.987691 0.248412
0.646987 0.987170 0.245344
0.847784 0.986491 0.241805
0.956433 0.985701 0.238852
0.994098 0.984898 0.236651
0.030328 0.030327 0.601283
0.044190 0.030326 0.594142
0.173741 0.030326 0.590117
0.382150 0.030326 0.587494
0.582436 0.030326 0.585591
0.765510 0.030326 0.583655
0.906141 0.030326 0.581237
0.970250 0.030326 0.578559
0.990890 0.030326 0.575966
0.030328 0.040703 0.557638
0.039713 0.037724 0.550354
0.152043 0.036360 0.546267
0.343574 0.035582 0.543595
0.539933 0.035070 0.541661
0.732224 0.034593 0.539701
0.889635 0.034053 0.537249
0.964489 0.033524 0.534530
0.989005 0.033076 0.531911
0.030328 0.160074 0.532400
0.037674 0.143735 0.525088
0.140729 0.135225 0.520987
0.322506 0.129920 0.518308
0.515465 0.126201 0.516375
0.711978 0.122523 0.514412
0.879119 0.118067 0.511957
0.960738 0.113308 0.509239
0.987770 0.108883 0.506620
0.030328 0.361639 0.515900
0.036535 0.331484 0.508590
0.133756 0.315210 0.504492
0.309182 0.304863 0.501817
0.499508 0.297513 0.499888
0.698321 0.290167 0.497929
0.871809 0.281160 0.495479
0.958091 0.271412 0.492770
0.986895 0.262222 0.490158
0.030328 0.563122 0.503986
0.035801 0.528880 0.496689
0.128913 0.509612 0.492597
0.299771 0.497063 0.489933
0.488075 0.488004 0.487935
0.688516 0.478827 0.485779
0.866830 0.467406 0.483081
0.956712 0.454831 0.480276
0.986835 0.442769 0.477696
0.031174 0.753104 0.491086
0.035746 0.725686 0.484037
0.124863 0.709551 0.479882
0.291475 0.698754 0.476864
0.477979 0.690815 0.474402
0.680188 0.682647 0.471732
0.863563 0.672299 0.468581
0.957271 0.660665 0.465606
0.988804 0.649264 0.463059
0.033085 0.901717 0.474219
0.036928 0.888003 0.467195
0.121286 0.879614 0.462879
0.282600 0.873864 0.459491
0.466538 0.869563 0.456571
0.670548 0.865072 0.453365
0.860153 0.859285 0.449673
0.958875 0.852645 0.446392
0.992396 0.845998 0.443736
0.034301 0.969438 0.456642
0.037569 0.964676 0.449545
0.116788 0.961708 0.445121
0.272129 0.959648 0.441547
0.452739 0.958095 0.438398
0.658060 0.956460 0.434888
0.854194 0.954336 0.430831
0.958558 0.951871 0.427285
0.994420 0.949375 0.424481
0.034711 0.990916 0.440708
0.037466 0.989368 0.433620
0.111836 0.988398 0.429200
0.261393 0.987723 0.425609
0.438432 0.987211 0.422420
0.644421 0.986672 0.418824
0.846474 0.985969 0.414623
0.956288 0.985151 0.410958
0.994435 0.984318 0.408090
0.030328 0.030327 0.779453
0.043807 0.030326 0.774144
0.171999 0.030326 0.771128
0.379138 0.030326 0.769146
0.579220 0.030326 0.767708
0.763072 0.030326 0.766239
0.904963 0.030326 0.764395
0.969844 0.030326 0.762346
0.990758 0.030326 0.760355
0.030328 0.039888 0.746032
0.039420 0.037089 0.740221
0.150489 0.035818 0.736929
0.340720 0.035096 0.734764
0.536672 0.034624 0.733193
0.729572 0.034184 0.731595
0.888279 0.033689 0.729587
0.964009 0.033205 0.727353
0.988848 0.032796 0.725190
0.030328 0.155833 0.725595
0.037429 0.139875 0.719514
0.139277 0.131570 0.716069
0.319754 0.126395 0.713808
0.512200 0.122767 0.712170
0.709213 0.119181 0.710499
0.877653 0.114837 0.708402
0.960210 0.110199 0.706076
0.987595 0.105887 0.703819
0.030328 0.353946 0.711766
0.036320 0.324153 0.705517
0.132369 0.308097 0.701978
0.306499 0.297898 0.699660
0.496248 0.290657 0.697978
0.695486 0.283422 0.696263
0.870269 0.274557 0.694113
0.957530 0.264968 0.691729
0.986709 0.255933 0.689415
0.030329 0.554562 0.701538
0.035607 0.520270 0.695176
0.127571 0.501011 0.691577
0.297146 0.488481 0.689209
0.484855 0.479442 0.687398
0.685692 0.470292 0.685430
0.865321 0.458913 0.682961
0.956222 0.446394 0.680414
0.986737 0.434396 0.678091
0.031302 0.746396 0.690014
0.035677 0.718541 0.683789
0.123675 0.702176 0.680041
0.289025 0.691237 0.677265
0.474893 0.683199 0.674956
0.677442 0.674933 0.672427
0.862127 0.664470 0.669455
0.956885 0.652716 0.666693
0.988827 0.641207 0.664346
0.033376 0.898423 0.674546
0.037049 0.884318 0.668172
0.120320 0.875698 0.664165
0.280392 0.869793 0.660948
0.463653 0.865377 0.658133
0.667939 0.860768 0.655010
0.858851 0.854833 0.651422
0.958670 0.848025 0.648282
0.992625 0.841213 0.645764
0.034697 0.968304 0.658176
0.037827 0.963377 0.651531
0.116003 0.960308 0.647301
0.270125 0.958178 0.643822
0.450018 0.956572 0.640718
0.655544 0.954882 0.637228
0.852976 0.952686 0.633196
0.958489 0.950140 0.629707
0.994817 0.947561 0.626963
0.035145 0.990548 0.643056
0.037787 0.988945 0.636230
0.111150 0.987939 0.631898
0.259510 0.987239 0.628334
0.435795 0.986709 0.625138
0.641913 0.986150 0.621508
0.845240 0.985422 0.617261
0.956248 0.984574 0.613577
0.994893 0.983711 0.610699
0.030328 0.030327 0.912996
0.043341 0.030326 0.910459
0.169857 0.030326 0.909007
0.375416 0.030326 0.908050
0.575223 0.030326 0.907351
0.760023 0.030326 0.906638
0.903484 0.030326 0.905740
0.969333 0.030326 0.904736
0.990591 0.030326 0.903760
0.030328 0.038940 0.896630
0.039065 0.036359 0.893686
0.148580 0.035199 0.892003
0.337196 0.034545 0.890893
0.532623 0.034118 0.890085
0.726261 0.033723 0.889258
0.886577 0.033279 0.888218
0.963405 0.032847 0.887059
0.988649 0.032485 0.885928
0.030328 0.150706 0.886140
0.037134 0.135214 0.882945
0.137494 0.127158 0.881120
0.316358 0.122141 0.879916
0.508149 0.118625 0.879039
0.705762 0.115150 0.878144
0.875814 0.110942 0.877018
0.959545 0.106451 0.875760
0.987376 0.102277 0.874537
0.030328 0.344522 0.878823
0.036061 0.315190 0.875458
0.130665 0.299411 0.873536
0.303190 0.289398 0.872269
0.492206 0.282294 0.871347
0.691949 0.275200 0.870405
0.868337 0.266513 0.869219
0.956823 0.257122 0.867898
0.986474 0.248280 0.866610
0.030332 0.543913 0.873293
0.035373 0.509588 0.869805
0.125923 0.490355 0.867813
0.293909 0.477859 0.866485
0.480846 0.468854 0.865418
0.682135 0.459745 0.864197
0.863378 0.448426 0.862664
0.955551 0.435987 0.861165
0.986560 0.424077 0.859858
0.031397 0.737916 0.866416
0.035547 0.709530 0.863061
0.122161 0.692888 0.860911
0.285937 0.681778 0.859162
0.470983 0.673622 0.857585
0.673914 0.665241 0.855795
0.860206 0.654641 0.853747
0.956277 0.642747 0.852014
0.988734 0.631112 0.850672
0.033631 0.894202 0.856645
0.037107 0.879603 0.853107
0.119037 0.870692 0.850673
0.277557 0.864590 0.848462
0.459949 0.860031 0.846358
0.664538 0.855274 0.843948
0.857051 0.849151 0.841252
0.958237 0.842133 0.839112
0.992738 0.835115 0.837578
0.035075 0.966842 0.846507
0.038047 0.961704 0.842635
0.114933 0.958504 0.839942
0.267537 0.956284 0.837435
0.446514 0.954611 0.835014
0.652255 0.952850 0.832206
0.851274 0.950563 0.829022
0.958220 0.947911 0.826492
0.995136 0.945226 0.824700
0.035578 0.990074 0.837295
0.038091 0.988397 0.833171
0.110211 0.987346 0.830334
0.257084 0.986614 0.827708
0.432408 0.986060 0.825173
0.638649 0.985476 0.822196
0.843534 0.984715 0.818760
0.956031 0.983829 0.815997
0.995302 0.982928 0.814034
0.030328 0.030327 0.972891
0.042843 0.030326 0.972013
0.167540 0.030326 0.971508
0.371363 0.030326 0.971175
0.570840 0.030326 0.970931
0.756657 0.030326 0.970682
0.901843 0.030326 0.970368
0.968765 0.030326 0.970017
0.990406 0.030326 0.969674
0.030328 0.037984 0.967156
0.038689 0.035632 0.966107
0.146515 0.034588 0.965504
0.333365 0.034003 0.965106
0.528191 0.033624 0.964816
0.722610 0.033273 0.964518
0.884688 0.032881 0.964144
0.962733 0.032502 0.963725
0.988428 0.032185 0.963316
0.030328 0.145265 0.963393
0.036822 0.130273 0.962233
0.135567 0.122484 0.961568
0.312667 0.117636 0.961128
0.503718 0.114239 0.960807
0.701960 0.110884 0.960479
0.873774 0.106821 0.960065
0.958806 0.102488 0.959602
0.987131 0.098462 0.959150
0.030328 0.334368 0.960728
0.035788 0.305557 0.959491
0.128824 0.290088 0.958781
0.299595 0.280282 0.958311
0.487788 0.273330 0.957969
0.688055 0.266392 0.957619
0.866195 0.257901 0.957177
0.956037 0.248729 0.956684
0.986213 0.240100 0.956203
0.030330 0.532236 0.958690
0.035126 0.497912 0.957396
0.124142 0.478728 0.956652
0.290381 0.466283 0.956151
0.476430 0.457323 0.955691
0.678156 0.448268 0.955088
0.861137 0.437027 0.954324
0.954710 0.424685 0.953676
0.986270 0.412883 0.953194
0.031392 0.728443 0.955466
0.035318 0.699492 0.954377
0.120426 0.682558 0.953522
0.282463 0.671270 0.952628
0.466566 0.662991 0.951678
0.669856 0.654491 0.950523
0.857875 0.643751 0.949259
0.955388 0.631713 0.948400
0.988420 0.619952 0.947910
0.033717 0.889412 0.950305
0.036992 0.874260 0.949124
0.117457 0.865023 0.948034
0.274262 0.858703 0.946706
0.455656 0.853984 0.945242
0.660516 0.849063 0.943476
0.854743 0.842732 0.941579
0.957428 0.835481 0.940337
0.992533 0.828235 0.939686
0.035259 0.965170 0.945444
0.038066 0.959791 0.944014
0.113543 0.956442 0.942708
0.264468 0.954121 0.941108
0.442397 0.952371 0.939340
0.648309 0.950530 0.937184
0.849023 0.948139 0.934812
0.957535 0.945367 0.933199
0.995099 0.942562 0.932314
0.035811 0.989530 0.941516
0.038190 0.987769 0.939916
0.108952 0.986666 0.938510
0.254178 0.985898 0.936818
0.428408 0.985317 0.934950
0.634718 0.984704 0.932641
0.841264 0.983905 0.930035
0.955386 0.982975 0.928210
0.995346 0.982030 0.927178
0.030328 0.030326 0.991981
0.042384 0.030326 0.991690
0.165370 0.030326 0.991523
0.367544 0.030326 0.991412
0.566683 0.030326 0.991331
0.753442 0.030326 0.991248
0.900265 0.030326 0.991144
0.968217 0.030326 0.991027
0.990227 0.030326 0.990913
0.030328 0.037153 0.990072
0.038343 0.035009 0.989721
0.144583 0.034069 0.989519
0.329758 0.033545 0.989386
0.523992 0.033207 0.989288
0.719127 0.032896 0.989188
0.882875 0.032549 0.989062
0.962085 0.032215 0.988921
0.988214 0.031936 0.988784
0.030328 0.140272 0.988809
0.036537 0.125744 0.988419
0.133763 0.118202 0.988194
0.309195 0.113511 0.988045
0.499524 0.110225 0.987937
0.698335 0.106979 0.987826
0.871816 0.103052 0.987686
0.958094 0.098863 0.987529
0.986896 0.094974 0.987376
0.030328 0.324910 0.987910
0.035539 0.296605 0.987491
0.127101 0.281436 0.987250
0.296216 0.271829 0.987091
0.483608 0.265022 0.986974
0.684344 0.258233 0.986855
0.864140 0.249929 0.986705
0.955281 0.240965 0.986537
0.985961 0.232538 0.986373
0.030328 0.521165 0.987220
0.034902 0.486876 0.986779
0.122476 0.467758 0.986526
0.287062 0.455374 0.986356
0.472237 0.446465 0.986154
0.674336 0.437469 0.985814
0.858946 0.426312 0.985369
0.953852 0.414075 0.985063
0.985943 0.402385 0.984909
0.031330 0.719288 0.985483
0.035059 0.689819 0.985285
0.118750 0.672621 0.984951
0.279134 0.661172 0.984416
0.462312 0.652784 0.983736
0.665898 0.644178 0.982855
0.855531 0.633315 0.981921
0.954418 0.621151 0.981418
0.988002 0.609281 0.981272
0.033689 0.884706 0.982154
0.036783 0.869018 0.981928
0.115867 0.859467 0.981394
0.271041 0.852938 0.980442
0.451458 0.848065 0.979256
0.656525 0.842986 0.977769
0.852349 0.836455 0.976209
0.956459 0.828981 0.975340
0.992144 0.821518 0.975055
0.035299 0.963514 0.979405
0.037955 0.957897 0.978984
0.112101 0.954403 0.978263
0.261428 0.951981 0.977054
0.438333 0.950155 0.975571
0.644357 0.948235 0.973698
0.846644 0.945742 0.971669
0.956642 0.942853 0.970441
0.994824 0.939930 0.969940
0.035885 0.988989 0.977653
0.038139 0.987146 0.977117
0.107618 0.985991 0.976325
0.251279 0.985187 0.975042
0.424441 0.984579 0.973470
0.630767 0.983937 0.971455
0.838848 0.983101 0.969205
0.954511 0.982128 0.967780
0.995128 0.981139 0.967150
