luts/Filmemulation_SLog3_zu_Rec709.cube
# Filmemulation Negativ + Kopierfilm (slog3 -> Rec.709), frei gerechnet
# Erzeugt von lut_filmemulation_log_zu_rec709.py
LUT_3D_SIZE 5
0.030328 0.030327 0.030328
0.321251 0.030327 0.030328
0.883941 0.030327 0.030328
0.987178 0.030326 0.030328
0.993241 0.030326 0.030328
0.030328 0.295708 0.030328
0.169466 0.219181 0.030328
0.879192 0.030327 0.030328
0.987134 0.030326 0.030328
0.993241 0.030326 0.030328
0.032078 0.879798 0.028578
0.032053 0.877925 0.028603
0.750541 0.811294 0.026126
0.986778 0.030326 0.030328
0.993241 0.030326 0.030328
0.033817 0.987975 0.026840
0.033816 0.987959 0.026840
0.033814 0.987827 0.026842
0.976949 0.977683 0.019975
0.993241 0.030326 0.030328
0.034006 0.997909 0.026650
0.034006 0.997908 0.026650
0.034006 0.997907 0.026650
0.034006 0.997890 0.026651
1.000000 0.995419 0.019131
0.030328 0.030327 0.240535
0.289073 0.030326 0.222584
0.875326 0.030326 0.144042
0.987171 0.030326 0.030328
0.993241 0.030326 0.030328
0.030328 0.210217 0.158277
0.146419 0.146419 0.146419
0.871123 0.030326 0.099013
0.987127 0.030326 0.030328
0.993241 0.030326 0.030328
0.032045 0.877274 0.028611
0.032019 0.875326 0.028637
0.748631 0.807173 0.026222
0.986770 0.030326 0.030328
0.993241 0.030326 0.030328
0.033816 0.987953 0.026840
0.033816 0.987936 0.026840
0.033813 0.987804 0.026843
0.976923 0.977637 0.019977
0.993241 0.030326 0.030328
0.034006 0.997908 0.026650
0.034006 0.997908 0.026650
0.034006 0.997906 0.026650
0.034006 0.997890 0.026651
1.000000 0.995418 0.019131
0.030328 0.030327 0.842380
0.144121 0.030326 0.835478
0.862386 0.030326 0.824802
0.985385 0.030326 0.743773
0.993241 0.030326 0.030328
0.030328 0.030327 0.839443
0.030855 0.030326 0.836044
0.856600 0.030326 0.821550
0.985343 0.030326 0.737211
0.993241 0.030326 0.030328
0.032038 0.806334 0.726437
0.031994 0.803015 0.725561
0.707587 0.704379 0.701174
0.985012 0.030326 0.673581
0.993241 0.030326 0.030328
0.033813 0.987775 0.026843
0.033813 0.987758 0.026844
0.033810 0.987621 0.026846
0.976715 0.977272 0.019991
0.993241 0.030326 0.030328
0.034006 0.997906 0.026650
0.034006 0.997906 0.026650
0.034006 0.997904 0.026650
0.034006 0.997887 0.026651
1.000000 0.995413 0.019131
0.030328 0.030326 0.983609
0.030328 0.030326 0.983603
0.733872 0.030326 0.982178
0.984056 0.030326 0.981058
0.993241 0.030326 0.972639
0.030328 0.030326 0.983581
0.030328 0.030326 0.983574
0.714213 0.030326 0.982165
0.983999 0.030326 0.981025
0.993241 0.030326 0.972564
0.030328 0.030326 0.983354
0.030328 0.030326 0.983348
0.401295 0.030326 0.982171
0.983533 0.030326 0.980761
0.993241 0.030326 0.971960
0.035570 0.977541 0.958104
0.035569 0.977504 0.958091
0.035562 0.977212 0.957995
0.971011 0.958204 0.945397
0.993241 0.030326 0.964348
0.034006 0.997884 0.026651
0.034006 0.997883 0.026651
0.034005 0.997882 0.026651
0.034005 0.997864 0.026651
1.000000 0.995365 0.019133
0.030328 0.030326 0.993241
0.030328 0.030326 0.993241
0.030328 0.030326 0.993241
0.970662 0.030326 0.993241
0.993241 0.030326 0.993241
0.030328 0.030326 0.993241
0.030328 0.030326 0.993241
0.030328 0.030326 0.993241
0.970436 0.030326 0.993241
0.993241 0.030326 0.993241
0.030328 0.030326 0.993241
0.030328 0.030326 0.993241
0.030328 0.030326 0.993241
0.968534 0.030326 0.993241
0.993241 0.030326 0.993241
0.030328 0.030326 0.993241
0.030328 0.030326 0.993241
0.030328 0.030326 0.993241
0.910783 0.030326 0.993241
0.993241 0.030326 0.993241
0.036063 0.995532 0.986432
0.036063 0.995531 0.986432
0.036063 0.995527 0.986431
0.036062 0.995489 0.986418
1.000000 0.990878 0.976371
