luts/Filmemulation_SLog3_zu_Rec709.cube
# Filmemulation Negativ + Kopierfilm (slog3 -> Rec.709), frei gerechnet
# Erzeugt von lut_filmemulation_log_zu_rec709.py
LUT_3D_SIZE 9
0.030328 0.030327 0.030328
0.101114 0.030327 0.030328
0.321251 0.030327 0.030328
0.660077 0.030327 0.030328
0.883941 0.030327 0.030328
0.963545 0.030326 0.030328
0.987178 0.030326 0.030328
0.993241 0.030326 0.030328
0.993241 0.030326 0.030328
0.030328 0.083776 0.030328
0.041906 0.058181 0.030328
0.253549 0.034023 0.030328
0.646971 0.030327 0.030328
0.882145 0.030327 0.030328
0.963371 0.030326 0.030328
0.987161 0.030326 0.030328
0.993241 0.030326 0.030328
0.993241 0.030326 0.030328
0.030328 0.295708 0.030328
0.030328 0.281072 0.030328
0.169466 0.219181 0.030328
0.560746 0.138782 0.030328
0.879192 0.030327 0.030328
0.963092 0.030326 0.030328
0.987134 0.030326 0.030328
0.993241 0.030326 0.030328
0.993241 0.030326 0.030328
0.030344 0.641972 0.030312
0.030338 0.636854 0.030318
0.030331 0.628494 0.030325
0.442908 0.528944 0.030298
0.821919 0.398148 0.030321
0.962192 0.030326 0.030328
0.987049 0.030326 0.030328
0.993241 0.030326 0.030328
0.993241 0.030326 0.030328
0.032078 0.879798 0.028578
0.032069 0.879079 0.028588
0.032053 0.877925 0.028603
0.032004 0.874190 0.028652
0.750541 0.811294 0.026126
0.940799 0.721234 0.026786
0.986778 0.030326 0.030328
0.993241 0.030326 0.030328
0.993241 0.030326 0.030328
0.033377 0.963825 0.027279
0.033376 0.963756 0.027280
0.033374 0.963648 0.027282
0.033368 0.963305 0.027288
0.033349 0.962204 0.027308
0.917387 0.937055 0.021764
0.984230 0.904021 0.022144
0.993241 0.030326 0.030328
0.993241 0.030326 0.030328
0.033817 0.987975 0.026840
0.033817 0.987969 0.026840
0.033816 0.987959 0.026840
0.033816 0.987927 0.026841
0.033814 0.987827 0.026842
0.033808 0.987507 0.026848
0.976949 0.977683 0.019975
0.999440 0.967439 0.020089
0.993241 0.030326 0.030328
0.033956 0.995330 0.026700
0.033956 0.995329 0.026700
0.033956 0.995328 0.026700
0.033956 0.995324 0.026700
0.033956 0.995314 0.026700
0.033955 0.995281 0.026701
0.033953 0.995176 0.026703
0.996801 0.990727 0.019358
1.000000 0.987340 0.019398
0.034006 0.997909 0.026650
0.034006 0.997908 0.026650
0.034006 0.997908 0.026650
0.034006 0.997908 0.026650
0.034006 0.997907 0.026650
0.034006 0.997903 0.026650
0.034006 0.997890 0.026651
0.034005 0.997850 0.026651
1.000000 0.995419 0.019131
0.030328 0.030327 0.061843
0.088697 0.030327 0.055895
0.304958 0.030327 0.048914
0.649477 0.030326 0.033071
0.883656 0.030327 0.030328
0.963518 0.030326 0.030328
0.987175 0.030326 0.030328
0.993241 0.030326 0.030328
0.993241 0.030326 0.030328
0.030328 0.053360 0.038791
0.036189 0.036189 0.036189
0.267112 0.030327 0.034329
0.644784 0.030327 0.030328
0.881852 0.030327 0.030328
0.963343 0.030326 0.030328
0.987158 0.030326 0.030328
0.993241 0.030326 0.030328
0.993241 0.030326 0.030328
0.030328 0.275989 0.030328
0.030328 0.260824 0.030328
0.163993 0.200856 0.030328
0.560788 0.119654 0.030328
0.878884 0.030327 0.030328
0.963064 0.030326 0.030328
0.987131 0.030326 0.030328
0.993241 0.030326 0.030328
0.993241 0.030326 0.030328
0.030336 0.635079 0.030320
0.030332 0.629792 0.030324
0.030329 0.621156 0.030328
0.439961 0.520602 0.030312
0.821880 0.386478 0.030328
0.962162 0.030326 0.030328
0.987046 0.030326 0.030328
0.993241 0.030326 0.030328
0.993241 0.030326 0.030328
0.032065 0.878832 0.028591
0.032056 0.878103 0.028601
0.032040 0.876931 0.028616
0.031991 0.873138 0.028666
0.749804 0.809718 0.026163
0.940739 0.718167 0.026844
0.986775 0.030326 0.030328
0.993241 0.030326 0.030328
0.993241 0.030326 0.030328
0.033375 0.963733 0.027281
0.033374 0.963664 0.027282
0.033372 0.963555 0.027284
0.033366 0.963210 0.027290
0.033347 0.962104 0.027309
0.917291 0.936880 0.021770
0.984219 0.903631 0.022156
0.993241 0.030326 0.030328
0.993241 0.030326 0.030328
0.033816 0.987967 0.026840
0.033816 0.987960 0.026840
0.033816 0.987950 0.026840
0.033816 0.987918 0.026841
0.033814 0.987818 0.026843
0.033808 0.987498 0.026849
0.976939 0.977666 0.019976
0.999439 0.967400 0.020090
0.993241 0.030326 0.030328
0.033956 0.995329 0.026700
0.033956 0.995328 0.026700
0.033956 0.995327 0.026700
0.033956 0.995324 0.026700
0.033956 0.995313 0.026700
0.033955 0.995280 0.026701
0.033953 0.995175 0.026703
0.996800 0.990725 0.019358
1.000000 0.987336 0.019398
0.034006 0.997908 0.026650
0.034006 0.997908 0.026650
0.034006 0.997908 0.026650
0.034006 0.997908 0.026650
0.034006 0.997906 0.026650
0.034006 0.997902 0.026650
0.034006 0.997890 0.026651
0.034005 0.997850 0.026651
1.000000 0.995418 0.019131
0.030328 0.030327 0.240535
0.073813 0.030327 0.230955
0.289073 0.030326 0.222584
0.636652 0.030326 0.202708
0.875326 0.030326 0.144042
0.963473 0.030326 0.030328
0.987171 0.030326 0.030328
0.993241 0.030326 0.030328
0.993241 0.030326 0.030328
0.030328 0.030473 0.209278
0.031570 0.030327 0.217416
0.249459 0.030326 0.207057
0.623337 0.030326 0.186657
0.873700 0.030326 0.126851
0.963299 0.030326 0.030328
0.987154 0.030326 0.030328
0.993241 0.030326 0.030328
0.993241 0.030326 0.030328
0.030328 0.210217 0.158277
0.030328 0.196099 0.155742
0.146419 0.146419 0.146419
0.543754 0.075948 0.133196
0.871123 0.030326 0.099013
0.963018 0.030326 0.030328
0.987127 0.030326 0.030328
0.993241 0.030326 0.030328
0.993241 0.030326 0.030328
0.030328 0.582727 0.079877
0.030328 0.577510 0.076819
0.030328 0.569032 0.071970
0.421460 0.469413 0.054286
0.821864 0.367305 0.030328
0.962114 0.030326 0.030328
0.987042 0.030326 0.030328
0.993241 0.030326 0.030328
0.993241 0.030326 0.030328
0.032045 0.877274 0.028611
0.032035 0.876526 0.028621
0.032019 0.875326 0.028637
0.031969 0.871439 0.028688
0.748631 0.807173 0.026222
0.940645 0.713188 0.026937
0.986770 0.030326 0.030328
0.993241 0.030326 0.030328
0.993241 0.030326 0.030328
0.033373 0.963587 0.027283
0.033372 0.963518 0.027285
0.033370 0.963408 0.027287
0.033364 0.963060 0.027293
0.033344 0.961944 0.027312
0.917140 0.936600 0.021779
0.984202 0.903006 0.022174
0.993241 0.030326 0.030328
0.993241 0.030326 0.030328
0.033816 0.987953 0.026840
0.033816 0.987947 0.026840
0.033816 0.987936 0.026840
0.033815 0.987904 0.026841
0.033813 0.987804 0.026843
0.033807 0.987483 0.026849
0.976923 0.977637 0.019977
0.999437 0.967337 0.020093
0.993241 0.030326 0.030328
0.033956 0.995327 0.026700
0.033956 0.995327 0.026700
0.033956 0.995325 0.026700
0.033956 0.995322 0.026700
0.033956 0.995312 0.026700
0.033955 0.995279 0.026701
0.033953 0.995174 0.026703
0.996798 0.990722 0.019359
1.000000 0.987330 0.019398
0.034006 0.997908 0.026650
0.034006 0.997908 0.026650
0.034006 0.997908 0.026650
0.034006 0.997908 0.026650
0.034006 0.997906 0.026650
0.034006 0.997902 0.026650
0.034006 0.997890 0.026651
0.034005 0.997850 0.026651
1.000000 0.995418 0.019131
0.030328 0.030327 0.570861
0.036244 0.030327 0.562919
0.253326 0.030326 0.554391
0.619816 0.030326 0.542907
0.870245 0.030326 0.514438
0.959587 0.030326 0.417999
0.987158 0.030326 0.030328
0.993241 0.030326 0.030328
0.993241 0.030326 0.030328
0.030328 0.030327 0.564108
0.030328 0.030327 0.562553
0.211753 0.030326 0.548092
0.605401 0.030326 0.535967
0.868291 0.030326 0.506740
0.959422 0.030326 0.407787
0.987141 0.030326 0.030328
0.993241 0.030326 0.030328
0.993241 0.030326 0.030328
0.030328 0.104738 0.491338
0.030328 0.089725 0.492440
0.118814 0.056129 0.484581
0.580576 0.030326 0.524620
0.865080 0.030326 0.494137
0.959159 0.030326 0.391053
0.987113 0.030326 0.030328
0.993241 0.030326 0.030328
0.993241 0.030326 0.030328
0.030328 0.518615 0.421625
0.030328 0.512016 0.420220
0.030328 0.501263 0.417990
0.396808 0.396809 0.396811
0.806899 0.252792 0.372360
0.958333 0.030326 0.334077
0.987028 0.030326 0.030328
0.993241 0.030326 0.030328
0.993241 0.030326 0.030328
0.031891 0.841653 0.263200
0.031877 0.840769 0.260938
0.031854 0.839350 0.257335
0.031784 0.834768 0.245931
0.727288 0.758876 0.195702
0.935608 0.658322 0.072187
0.986755 0.030326 0.030328
0.993241 0.030326 0.030328
0.993241 0.030326 0.030328
0.033365 0.963124 0.027292
0.033364 0.963053 0.027293
0.033362 0.962940 0.027295
0.033355 0.962583 0.027301
0.033335 0.961437 0.027321
0.916664 0.935711 0.021809
0.984146 0.901004 0.022231
0.993241 0.030326 0.030328
0.993241 0.030326 0.030328
0.033815 0.987910 0.026841
0.033815 0.987904 0.026841
0.033815 0.987893 0.026841
0.033814 0.987861 0.026842
0.033813 0.987760 0.026844
0.033807 0.987436 0.026850
0.976872 0.977549 0.019980
0.999431 0.967140 0.020099
0.993241 0.030326 0.030328
0.033956 0.995323 0.026700
0.033956 0.995322 0.026700
0.033956 0.995321 0.026700
0.033956 0.995317 0.026700
0.033956 0.995307 0.026700
0.033955 0.995274 0.026701
0.033953 0.995169 0.026703
0.996793 0.990712 0.019359
1.000000 0.987309 0.019399
0.034006 0.997908 0.026650
0.034006 0.997908 0.026650
0.034006 0.997907 0.026650
0.034006 0.997907 0.026650
0.034006 0.997906 0.026650
0.034006 0.997902 0.026650
0.034006 0.997889 0.026651
0.034005 0.997849 0.026651
1.000000 0.995417 0.019131
0.030328 0.030327 0.842380
0.030328 0.030327 0.842126
0.144121 0.030326 0.835478
0.577188 0.030326 0.831147
0.862386 0.030326 0.824802
0.957948 0.030326 0.808456
0.985385 0.030326 0.743773
0.993241 0.030326 0.030328
0.993241 0.030326 0.030328
0.030328 0.030327 0.841256
0.030328 0.030327 0.840998
0.096816 0.030326 0.834992
0.560129 0.030326 0.830040
0.860200 0.030326 0.823557
0.957751 0.030326 0.806978
0.985368 0.030326 0.741267
0.993241 0.030326 0.030328
0.993241 0.030326 0.030328
0.030328 0.030327 0.839443
0.030328 0.030327 0.839179
0.030855 0.030326 0.836044
0.530662 0.030326 0.828275
0.856600 0.030326 0.821550
0.957435 0.030326 0.804599
0.985343 0.030326 0.737211
0.993241 0.030326 0.030328
0.993241 0.030326 0.030328
0.030328 0.333604 0.777879
0.030328 0.323231 0.778040
0.030328 0.306349 0.778337
0.344525 0.205010 0.769103
0.817524 0.036246 0.783408
0.956416 0.030326 0.796807
0.985262 0.030326 0.723794
0.993241 0.030326 0.030328
0.993241 0.030326 0.030328
0.032038 0.806334 0.726437
0.032021 0.805062 0.726097
0.031994 0.803015 0.725561
0.031906 0.796367 0.723883
0.707587 0.704379 0.701174
0.931497 0.556568 0.681439
0.985012 0.030326 0.673581
0.993241 0.030326 0.030328
0.993241 0.030326 0.030328
0.034104 0.947895 0.571879
0.034100 0.947801 0.570982
0.034095 0.947652 0.569560
0.034076 0.947179 0.565067
0.034019 0.945666 0.550660
0.905760 0.911122 0.473452
0.981446 0.867913 0.240391
0.993241 0.030326 0.030328
0.993241 0.030326 0.030328
0.033813 0.987775 0.026843
0.033813 0.987769 0.026844
0.033813 0.987758 0.026844
0.033812 0.987725 0.026844
0.033810 0.987621 0.026846
0.033804 0.987289 0.026853
0.976715 0.977272 0.019991
0.999413 0.966516 0.020119
0.993241 0.030326 0.030328
0.033956 0.995309 0.026700
0.033956 0.995308 0.026700
0.033956 0.995307 0.026700
0.033956 0.995303 0.026700
0.033956 0.995293 0.026701
0.033955 0.995259 0.026701
0.033953 0.995153 0.026703
0.996775 0.990682 0.019360
1.000000 0.987245 0.019401
0.034006 0.997906 0.026650
0.034006 0.997906 0.026650
0.034006 0.997906 0.026650
0.034006 0.997905 0.026650
0.034006 0.997904 0.026650
0.034006 0.997900 0.026650
0.034006 0.997887 0.026651
0.034005 0.997847 0.026651
1.000000 0.995413 0.019131
0.030328 0.030327 0.950952
0.030328 0.030327 0.950926
0.030328 0.030327 0.950885
0.409180 0.030326 0.947704
0.841247 0.030326 0.946237
0.955444 0.030326 0.944140
0.984840 0.030326 0.938731
0.993241 0.030326 0.915989
0.993241 0.030326 0.030328
0.030328 0.030327 0.950837
0.030328 0.030327 0.950811
0.030328 0.030327 0.950770
0.380250 0.030326 0.947646
0.838413 0.030326 0.946121
0.955221 0.030326 0.944008
0.984821 0.030326 0.938571
0.993241 0.030326 0.915689
0.993241 0.030326 0.030328
0.030328 0.030327 0.950655
0.030328 0.030327 0.950628
0.030328 0.030327 0.950587
0.329968 0.030326 0.947568
0.833725 0.030326 0.945937
0.954864 0.030326 0.943797
0.984789 0.030326 0.938316
0.993241 0.030326 0.915210
0.993241 0.030326 0.030328
0.030328 0.030327 0.950075
0.030328 0.030327 0.950048
0.030328 0.030327 0.950006
0.133197 0.030326 0.947592
0.817317 0.030326 0.945357
0.953710 0.030326 0.943130
0.984691 0.030326 0.937506
0.993241 0.030326 0.913681
0.993241 0.030326 0.030328
0.030813 0.665471 0.919933
0.030790 0.662202 0.919978
0.030755 0.656911 0.920051
0.030648 0.639450 0.920287
0.658126 0.491451 0.914835
0.933046 0.137972 0.920323
0.984376 0.030326 0.934868
0.993241 0.030326 0.908604
0.993241 0.030326 0.030328
0.034521 0.935843 0.896254
0.034518 0.935701 0.896210
0.034513 0.935475 0.896140
0.034498 0.934759 0.895921
0.034449 0.932448 0.895243
0.897875 0.888347 0.878819
0.980490 0.815478 0.871084
0.993241 0.030326 0.888485
0.993241 0.030326 0.030328
0.035348 0.981359 0.824109
0.035348 0.981349 0.823952
0.035347 0.981334 0.823702
0.035344 0.981288 0.822918
0.035335 0.981141 0.820451
0.035306 0.980673 0.812390
0.973547 0.966110 0.757268
0.999242 0.951530 0.540264
0.993241 0.030326 0.030328
0.033955 0.995264 0.026701
0.033955 0.995264 0.026701
0.033955 0.995262 0.026701
0.033955 0.995259 0.026701
0.033955 0.995248 0.026702
0.033954 0.995214 0.026702
0.033952 0.995105 0.026704
0.996720 0.990588 0.019364
1.000000 0.987043 0.019408
0.034006 0.997900 0.026650
0.034006 0.997900 0.026650
0.034006 0.997900 0.026650
0.034006 0.997900 0.026650
0.034006 0.997899 0.026651
0.034006 0.997894 0.026651
0.034005 0.997882 0.026651
0.034005 0.997841 0.026652
1.000000 0.995401 0.019132
0.030328 0.030326 0.983609
0.030328 0.030326 0.983606
0.030328 0.030326 0.983603
0.030328 0.030326 0.983590
0.733872 0.030326 0.982178
0.948696 0.030326 0.981699
0.984056 0.030326 0.981058
0.993241 0.030326 0.979438
0.993241 0.030326 0.972639
0.030328 0.030326 0.983598
0.030328 0.030326 0.983595
0.030328 0.030326 0.983592
0.030328 0.030326 0.983579
0.726557 0.030326 0.982173
0.948401 0.030326 0.981688
0.984034 0.030326 0.981046
0.993241 0.030326 0.979423
0.993241 0.030326 0.972610
0.030328 0.030326 0.983581
0.030328 0.030326 0.983578
0.030328 0.030326 0.983574
0.030328 0.030326 0.983562
0.714213 0.030326 0.982165
0.947927 0.030326 0.981670
0.983999 0.030326 0.981025
0.993241 0.030326 0.979398
0.993241 0.030326 0.972564
0.030328 0.030326 0.983526
0.030328 0.030326 0.983523
0.030328 0.030326 0.983519
0.030328 0.030326 0.983507
0.668503 0.030326 0.982146
0.946388 0.030326 0.981614
0.983888 0.030326 0.980961
0.993241 0.030326 0.979321
0.993241 0.030326 0.972418
0.030328 0.030326 0.983354
0.030328 0.030326 0.983352
0.030328 0.030326 0.983348
0.030328 0.030326 0.983335
0.401295 0.030326 0.982171
0.940989 0.030326 0.981441
0.983533 0.030326 0.980761
0.993241 0.030326 0.979078
0.993241 0.030326 0.971960
0.033605 0.881674 0.966902
0.033597 0.881215 0.966913
0.033583 0.880482 0.966932
0.033541 0.878136 0.966990
0.033401 0.870310 0.967184
0.873793 0.775540 0.961321
0.974338 0.381166 0.969179
0.993241 0.030326 0.978287
0.993241 0.030326 0.970435
0.035570 0.977541 0.958104
0.035570 0.977527 0.958099
0.035569 0.977504 0.958091
0.035568 0.977433 0.958068
0.035562 0.977212 0.957995
0.035545 0.976496 0.957769
0.971011 0.958204 0.945397
0.999467 0.932689 0.942881
0.993241 0.030326 0.964348
0.035854 0.992137 0.933592
0.035854 0.992136 0.933574
0.035854 0.992134 0.933545
0.035854 0.992129 0.933456
0.035853 0.992113 0.933179
0.035849 0.992063 0.932307
0.035839 0.991903 0.929435
0.997050 0.984969 0.901669
1.000000 0.979931 0.800235
0.034006 0.997884 0.026651
0.034006 0.997883 0.026651
0.034006 0.997883 0.026651
0.034006 0.997883 0.026651
0.034005 0.997882 0.026651
0.034005 0.997877 0.026651
0.034005 0.997864 0.026651
0.034004 0.997823 0.026652
1.000000 0.995365 0.019133
0.030328 0.030326 0.993241
0.030328 0.030326 0.993241
0.030328 0.030326 0.993241
0.030328 0.030326 0.993241
0.030328 0.030326 0.993241
0.911213 0.030326 0.992912
0.981995 0.030326 0.992736
0.993241 0.030326 0.992520
0.993241 0.030326 0.991989
0.030328 0.030326 0.993241
0.030328 0.030326 0.993241
0.030328 0.030326 0.993241
0.030328 0.030326 0.993241
0.030328 0.030326 0.993241
0.910324 0.030326 0.992911
0.981966 0.030326 0.992735
0.993239 0.030326 0.992519
0.993241 0.030326 0.991987
0.030328 0.030326 0.993241
0.030328 0.030326 0.993241
0.030328 0.030326 0.993241
0.030328 0.030326 0.993241
0.030328 0.030326 0.993241
0.908878 0.030326 0.992911
0.981920 0.030326 0.992733
0.993236 0.030326 0.992517
0.993241 0.030326 0.991984
0.030328 0.030326 0.993241
0.030328 0.030326 0.993241
0.030328 0.030326 0.993241
0.030328 0.030326 0.993241
0.030328 0.030326 0.993241
0.904060 0.030326 0.992909
0.981774 0.030326 0.992727
0.993223 0.030326 0.992510
0.993241 0.030326 0.991976
0.030328 0.030326 0.993241
0.030328 0.030326 0.993241
0.030328 0.030326 0.993241
0.030328 0.030326 0.993241
0.030328 0.030326 0.993241
0.885461 0.030326 0.992905
0.981305 0.030326 0.992709
0.993185 0.030326 0.992489
0.993241 0.030326 0.991951
0.030328 0.030326 0.993241
0.030328 0.030326 0.993241
0.030328 0.030326 0.993241
0.030328 0.030326 0.993241
0.030328 0.030326 0.993241
0.731263 0.030326 0.992927
0.979664 0.030326 0.992652
0.993063 0.030326 0.992423
0.993241 0.030326 0.991872
0.035244 0.960791 0.982034
0.035243 0.960745 0.982035
0.035241 0.960671 0.982038
0.035236 0.960437 0.982045
0.035220 0.959700 0.982069
0.035165 0.957228 0.982148
0.962448 0.917767 0.974201
0.993304 0.695189 0.981154
0.993241 0.030326 0.991614
0.035931 0.990807 0.978870
0.035931 0.990806 0.978869
0.035931 0.990803 0.978868
0.035931 0.990796 0.978865
0.035931 0.990772 0.978857
0.035929 0.990697 0.978832
0.035923 0.990457 0.978754
0.996142 0.982102 0.968062
1.000000 0.973373 0.967188
0.036038 0.996061 0.970601
0.036037 0.996061 0.970599
0.036037 0.996061 0.970596
0.036037 0.996060 0.970586
0.036037 0.996058 0.970557
0.036037 0.996052 0.970464
0.036036 0.996032 0.970174
0.036032 0.995970 0.969221
1.000000 0.992042 0.953148
0.030328 0.030326 0.993241
0.030328 0.030326 0.993241
0.030328 0.030326 0.993241
0.030328 0.030326 0.993241
0.030328 0.030326 0.993241
0.030328 0.030326 0.993241
0.970662 0.030326 0.993241
0.992542 0.030326 0.993241
0.993241 0.030326 0.993241
0.030328 0.030326 0.993241
0.030328 0.030326 0.993241
0.030328 0.030326 0.993241
0.030328 0.030326 0.993241
0.030328 0.030326 0.993241
0.030328 0.030326 0.993241
0.970575 0.030326 0.993241
0.992538 0.030326 0.993241
0.993241 0.030326 0.993241
0.030328 0.030326 0.993241
0.030328 0.030326 0.993241
0.030328 0.030326 0.993241
0.030328 0.030326 0.993241
0.030328 0.030326 0.993241
0.030328 0.030326 0.993241
0.970436 0.030326 0.993241
0.992533 0.030326 0.993241
0.993241 0.030326 0.993241
0.030328 0.030326 0.993241
0.030328 0.030326 0.993241
0.030328 0.030326 0.993241
0.030328 0.030326 0.993241
0.030328 0.030326 0.993241
0.030328 0.030326 0.993241
0.969994 0.030326 0.993241
0.992518 0.030326 0.993241
0.993241 0.030326 0.993241
0.030328 0.030326 0.993241
0.030328 0.030326 0.993241
0.030328 0.030326 0.993241
0.030328 0.030326 0.993241
0.030328 0.030326 0.993241
0.030328 0.030326 0.993241
0.968534 0.030326 0.993241
0.992468 0.030326 0.993241
0.993241 0.030326 0.993241
0.030328 0.030326 0.993241
0.030328 0.030326 0.993241
0.030328 0.030326 0.993241
0.030328 0.030326 0.993241
0.030328 0.030326 0.993241
0.030328 0.030326 0.993241
0.962857 0.030326 0.993241
0.992310 0.030326 0.993241
0.993241 0.030326 0.993241
0.030328 0.030326 0.993241
0.030328 0.030326 0.993241
0.030328 0.030326 0.993241
0.030328 0.030326 0.993241
0.030328 0.030326 0.993241
0.030328 0.030326 0.993241
0.910783 0.030326 0.993241
0.991761 0.030326 0.993241
0.993241 0.030326 0.993241
0.035824 0.985387 0.987685
0.035824 0.985382 0.987685
0.035823 0.985375 0.987686
0.035823 0.985351 0.987686
0.035821 0.985278 0.987689
0.035816 0.985045 0.987698
0.035797 0.984267 0.987729
0.993155 0.968343 0.978799
1.000000 0.886460 0.981985
0.036063 0.995532 0.986432
0.036063 0.995532 0.986432
0.036063 0.995531 0.986432
0.036063 0.995530 0.986432
0.036063 0.995527 0.986431
0.036063 0.995518 0.986427
0.036062 0.995489 0.986418
0.036060 0.995397 0.986387
1.000000 0.990878 0.976371
