luts/Filmemulation_SLog3_zu_Rec709.cube
# Filmemulation Negativ + Kopierfilm (slog3 -> Rec.709), frei gerechnet
# Erzeugt von lut_filmemulation_log_zu_rec709.py
LUT_3D_SIZE 33
0.030328 0.030327 0.030328
0.030328 0.030327 0.030328
0.030781 0.030327 0.030328
0.060574 0.030327 0.030328
0.101114 0.030327 0.030328
0.140623 0.030327 0.030328
0.187715 0.030327 0.030328
0.248928 0.030327 0.030328
0.321251 0.030327 0.030328
0.402832 0.030327 0.030328
0.489943 0.030327 0.030328
0.577472 0.030327 0.030328
0.660077 0.030327 0.030328
0.733489 0.030327 0.030328
0.795330 0.030327 0.030328
0.845157 0.030327 0.030328
0.883941 0.030327 0.030328
0.913381 0.030327 0.030328
0.935357 0.030327 0.030328
0.951598 0.030326 0.030328
0.963545 0.030326 0.030328
0.972330 0.030326 0.030328
0.978806 0.030326 0.030328
0.983602 0.030326 0.030328
0.987178 0.030326 0.030328
0.989865 0.030326 0.030328
0.991900 0.030326 0.030328
0.993241 0.030326 0.030328
0.993241 0.030326 0.030328
0.993241 0.030326 0.030328
0.993241 0.030326 0.030328
0.993241 0.030326 0.030328
0.993241 0.030326 0.030328
0.030328 0.030327 0.030328
0.030328 0.030327 0.030328
0.030328 0.030327 0.030328
0.047541 0.030327 0.030328
0.087699 0.030327 0.030328
0.127675 0.030327 0.030328
0.175492 0.030327 0.030328
0.237792 0.030327 0.030328
0.311523 0.030327 0.030328
0.394760 0.030327 0.030328
0.483629 0.030327 0.030328
0.572836 0.030327 0.030328
0.656880 0.030327 0.030328
0.731408 0.030327 0.030328
0.794041 0.030327 0.030328
0.844390 0.030327 0.030328
0.883497 0.030327 0.030328
0.913129 0.030327 0.030328
0.935216 0.030327 0.030328
0.951520 0.030326 0.030328
0.963502 0.030326 0.030328
0.972306 0.030326 0.030328
0.978792 0.030326 0.030328
0.983595 0.030326 0.030328
0.987174 0.030326 0.030328
0.989862 0.030326 0.030328
0.991899 0.030326 0.030328
0.993241 0.030326 0.030328
0.993241 0.030326 0.030328
0.993241 0.030326 0.030328
0.993241 0.030326 0.030328
0.993241 0.030326 0.030328
0.993241 0.030326 0.030328
0.030328 0.030327 0.030328
0.030328 0.030327 0.030328
0.030328 0.030327 0.030328
0.036393 0.030327 0.030328
0.074199 0.030327 0.030328
0.114554 0.030327 0.030328
0.163070 0.030327 0.030328
0.226449 0.030327 0.030328
0.301600 0.030327 0.030328
0.386522 0.030327 0.030328
0.477190 0.030327 0.030328
0.568115 0.030327 0.030328
0.653631 0.030327 0.030328
0.729298 0.030327 0.030328
0.792737 0.030327 0.030328
0.843615 0.030327 0.030328
0.883050 0.030327 0.030328
0.912876 0.030327 0.030328
0.935075 0.030327 0.030328
0.951441 0.030326 0.030328
0.963459 0.030326 0.030328
0.972282 0.030326 0.030328
0.978779 0.030326 0.030328
0.983587 0.030326 0.030328
0.987170 0.030326 0.030328
0.989860 0.030326 0.030328
0.991897 0.030326 0.030328
0.993241 0.030326 0.030328
0.993241 0.030326 0.030328
0.993241 0.030326 0.030328
0.993241 0.030326 0.030328
0.993241 0.030326 0.030328
0.993241 0.030326 0.030328
0.030328 0.046917 0.030328
0.030328 0.042726 0.030328
0.030328 0.038886 0.030328
0.030621 0.034493 0.030328
0.054896 0.032005 0.030328
0.092368 0.030910 0.030328
0.141035 0.030404 0.030328
0.214899 0.030327 0.030328
0.291480 0.030327 0.030328
0.378117 0.030327 0.030328
0.470622 0.030327 0.030328
0.563306 0.030327 0.030328
0.650329 0.030327 0.030328
0.727159 0.030327 0.030328
0.791418 0.030327 0.030328
0.842833 0.030327 0.030328
0.882599 0.030327 0.030328
0.912622 0.030327 0.030328
0.934933 0.030327 0.030328
0.951363 0.030326 0.030328
0.963415 0.030326 0.030328
0.972258 0.030326 0.030328
0.978765 0.030326 0.030328
0.983580 0.030326 0.030328
0.987165 0.030326 0.030328
0.989857 0.030326 0.030328
0.991896 0.030326 0.030328
0.993241 0.030326 0.030328
0.993241 0.030326 0.030328
0.993241 0.030326 0.030328
0.993241 0.030326 0.030328
0.993241 0.030326 0.030328
0.993241 0.030326 0.030328
0.030328 0.083776 0.030328
0.030328 0.079053 0.030328
0.030328 0.074330 0.030328
0.030328 0.069612 0.030328
0.041906 0.058181 0.030328
0.075443 0.052700 0.030328
0.119249 0.047065 0.030328
0.178910 0.040437 0.030328
0.253549 0.034023 0.030328
0.346454 0.030572 0.030328
0.463923 0.030327 0.030328
0.558408 0.030327 0.030328
0.646971 0.030327 0.030328
0.724989 0.030327 0.030328
0.790083 0.030327 0.030328
0.842043 0.030327 0.030328
0.882145 0.030327 0.030328
0.912366 0.030327 0.030328
0.934790 0.030327 0.030328
0.951284 0.030326 0.030328
0.963371 0.030326 0.030328
0.972233 0.030326 0.030328
0.978752 0.030326 0.030328
0.983572 0.030326 0.030328
0.987161 0.030326 0.030328
0.989855 0.030326 0.030328
0.991894 0.030326 0.030328
0.993241 0.030326 0.030328
0.993241 0.030326 0.030328
0.993241 0.030326 0.030328
0.993241 0.030326 0.030328
0.993241 0.030326 0.030328
0.993241 0.030326 0.030328
0.030328 0.120902 0.030328
0.030328 0.116282 0.030328
0.030328 0.111643 0.030328
0.030328 0.106988 0.030328
0.033593 0.092964 0.030328
0.062266 0.085492 0.030328
0.104748 0.078505 0.030328
0.162843 0.070048 0.030328
0.234888 0.059938 0.030328
0.320790 0.047835 0.030328
0.419403 0.035225 0.030328
0.543886 0.030330 0.030328
0.643558 0.030327 0.030328
0.722788 0.030327 0.030328
0.788733 0.030327 0.030328
0.841246 0.030327 0.030328
0.881688 0.030327 0.030328
0.912109 0.030327 0.030328
0.934647 0.030327 0.030328
0.951204 0.030326 0.030328
0.963328 0.030326 0.030328
0.972209 0.030326 0.030328
0.978738 0.030326 0.030328
0.983564 0.030326 0.030328
0.987157 0.030326 0.030328
0.989853 0.030326 0.030328
0.991893 0.030326 0.030328
0.993241 0.030326 0.030328
0.993241 0.030326 0.030328
0.993241 0.030326 0.030328
0.993241 0.030326 0.030328
0.993241 0.030326 0.030328
0.993241 0.030326 0.030328
0.030328 0.165732 0.030328
0.030328 0.161318 0.030328
0.030328 0.156881 0.030328
0.030328 0.152422 0.030328
0.030383 0.140500 0.030328
0.047783 0.127464 0.030328
0.088700 0.119019 0.030328
0.146006 0.109577 0.030328
0.217266 0.098595 0.030328
0.302011 0.085212 0.030328
0.397789 0.068562 0.030328
0.500553 0.048179 0.030328
0.609379 0.031131 0.030328
0.719991 0.030327 0.030328
0.787022 0.030327 0.030328
0.840239 0.030327 0.030328
0.881111 0.030327 0.030328
0.911785 0.030327 0.030328
0.934467 0.030327 0.030328
0.951105 0.030326 0.030328
0.963273 0.030326 0.030328
0.972179 0.030326 0.030328
0.978721 0.030326 0.030328
0.983555 0.030326 0.030328
0.987152 0.030326 0.030328
0.989850 0.030326 0.030328
0.991891 0.030326 0.030328
0.993241 0.030326 0.030328
0.993241 0.030326 0.030328
0.993241 0.030326 0.030328
0.993241 0.030326 0.030328
0.993241 0.030326 0.030328
0.993241 0.030326 0.030328
0.030328 0.224808 0.030328
0.030328 0.220728 0.030328
0.030328 0.216623 0.030328
0.030328 0.212494 0.030328
0.030328 0.208340 0.030328
0.033168 0.186812 0.030328
0.067943 0.174826 0.030328
0.124594 0.163895 0.030328
0.195768 0.152073 0.030328
0.280739 0.138135 0.030328
0.376748 0.120976 0.030328
0.478796 0.099318 0.030328
0.580880 0.071693 0.030328
0.679340 0.038828 0.030328
0.784577 0.030327 0.030328
0.838805 0.030327 0.030328
0.880293 0.030327 0.030328
0.911326 0.030327 0.030328
0.934213 0.030327 0.030328
0.950964 0.030326 0.030328
0.963195 0.030326 0.030328
0.972136 0.030326 0.030328
0.978698 0.030326 0.030328
0.983542 0.030326 0.030328
0.987144 0.030326 0.030328
0.989845 0.030326 0.030328
0.991889 0.030326 0.030328
0.993241 0.030326 0.030328
0.993241 0.030326 0.030328
0.993241 0.030326 0.030328
0.993241 0.030326 0.030328
0.993241 0.030326 0.030328
0.993241 0.030326 0.030328
0.030328 0.295708 0.030328
0.030328 0.292086 0.030328
0.030328 0.288439 0.030328
0.030328 0.284768 0.030328
0.030328 0.281072 0.030328
0.030328 0.277352 0.030328
0.043293 0.246287 0.030328
0.097922 0.232198 0.030328
0.169466 0.219181 0.030328
0.255617 0.204768 0.030328
0.353408 0.187566 0.030328
0.457405 0.166155 0.030328
0.560746 0.138782 0.030328
0.657156 0.103195 0.030328
0.743544 0.057156 0.030328
0.836867 0.030327 0.030328
0.879192 0.030327 0.030328
0.910711 0.030327 0.030328
0.933872 0.030327 0.030328
0.950777 0.030326 0.030328
0.963092 0.030326 0.030328
0.972079 0.030326 0.030328
0.978666 0.030326 0.030328
0.983524 0.030326 0.030328
0.987134 0.030326 0.030328
0.989840 0.030326 0.030328
0.991886 0.030326 0.030328
0.993241 0.030326 0.030328
0.993241 0.030326 0.030328
0.993241 0.030326 0.030328
0.993241 0.030326 0.030328
0.993241 0.030326 0.030328
0.993241 0.030326 0.030328
0.030328 0.377046 0.030328
0.030328 0.373988 0.030328
0.030328 0.370908 0.030328
0.030328 0.367807 0.030328
0.030328 0.364684 0.030328
0.030328 0.361538 0.030328
0.030328 0.357572 0.030328
0.064240 0.315668 0.030328
0.136081 0.300220 0.030328
0.224219 0.285174 0.030328
0.325134 0.268201 0.030328
0.432892 0.247678 0.030328
0.539921 0.221792 0.030328
0.639086 0.188164 0.030328
0.725661 0.143538 0.030328
0.798616 0.083759 0.030328
0.877702 0.030327 0.030328
0.909883 0.030327 0.030328
0.933416 0.030327 0.030328
0.950527 0.030326 0.030328
0.962955 0.030326 0.030328
0.972003 0.030326 0.030328
0.978624 0.030326 0.030328
0.983501 0.030326 0.030328
0.987121 0.030326 0.030328
0.989832 0.030326 0.030328
0.991881 0.030326 0.030328
0.993241 0.030326 0.030328
0.993241 0.030326 0.030328
0.993241 0.030326 0.030328
0.993241 0.030326 0.030328
0.993241 0.030326 0.030328
0.993241 0.030326 0.030328
0.030328 0.465400 0.030328
0.030328 0.462967 0.030328
0.030328 0.460516 0.030328
0.030328 0.458049 0.030328
0.030328 0.455563 0.030328
0.030328 0.453061 0.030328
0.030328 0.449905 0.030328
0.031280 0.419819 0.030328
0.092822 0.394084 0.030328
0.183516 0.377529 0.030328
0.289003 0.360844 0.030328
0.402506 0.341708 0.030328
0.515451 0.318237 0.030328
0.619771 0.288149 0.030328
0.710035 0.248264 0.030328
0.784282 0.193935 0.030328
0.843808 0.118572 0.030328
0.898623 0.030582 0.030328
0.932802 0.030327 0.030328
0.950191 0.030326 0.030328
0.962771 0.030326 0.030328
0.971902 0.030326 0.030328
0.978568 0.030326 0.030328
0.983469 0.030326 0.030328
0.987103 0.030326 0.030328
0.989822 0.030326 0.030328
0.991876 0.030326 0.030328
0.993241 0.030326 0.030328
0.993241 0.030326 0.030328
0.993241 0.030326 0.030328
0.993241 0.030326 0.030328
0.993241 0.030326 0.030328
0.993241 0.030326 0.030328
0.030328 0.555628 0.030328
0.030328 0.553813 0.030328
0.030328 0.551986 0.030328
0.030328 0.550146 0.030328
0.030328 0.548295 0.030328
0.030328 0.546431 0.030328
0.030328 0.544081 0.030328
0.030328 0.540751 0.030328
0.039300 0.501254 0.030328
0.129420 0.478110 0.030328
0.240980 0.461090 0.030328
0.362744 0.443499 0.030328
0.484455 0.423008 0.030328
0.596611 0.397481 0.030328
0.692952 0.364137 0.030328
0.771240 0.318847 0.030328
0.832476 0.255115 0.030328
0.879720 0.162762 0.030328
0.920385 0.034970 0.030328
0.949739 0.030326 0.030328
0.962524 0.030326 0.030328
0.971767 0.030326 0.030328
0.978493 0.030326 0.030328
0.983428 0.030326 0.030328
0.987080 0.030326 0.030328
0.989809 0.030326 0.030328
0.991868 0.030326 0.030328
0.993241 0.030326 0.030328
0.993241 0.030326 0.030328
0.993241 0.030326 0.030328
0.993241 0.030326 0.030328
0.993241 0.030326 0.030328
0.993241 0.030326 0.030328
0.030344 0.641972 0.030312
0.030342 0.640704 0.030314
0.030341 0.639428 0.030316
0.030339 0.638145 0.030317
0.030338 0.636854 0.030318
0.030337 0.635555 0.030320
0.030335 0.633918 0.030321
0.030333 0.631602 0.030323
0.030331 0.628494 0.030325
0.057471 0.584180 0.030328
0.175135 0.563104 0.030328
0.308337 0.546473 0.030325
0.442908 0.528944 0.030298
0.566749 0.508222 0.030263
0.672211 0.481984 0.030250
0.756814 0.446999 0.030275
0.821919 0.398148 0.030321
0.870876 0.326715 0.030328
0.907613 0.217445 0.030328
0.938197 0.049386 0.030328
0.962192 0.030326 0.030328
0.971586 0.030326 0.030328
0.978394 0.030326 0.030328
0.983372 0.030326 0.030328
0.987049 0.030326 0.030328
0.989791 0.030326 0.030328
0.991858 0.030326 0.030328
0.993241 0.030326 0.030328
0.993241 0.030326 0.030328
0.993241 0.030326 0.030328
0.993241 0.030326 0.030328
0.993241 0.030326 0.030328
0.993241 0.030326 0.030328
0.030594 0.719524 0.030062
0.030590 0.718691 0.030066
0.030586 0.717853 0.030071
0.030581 0.717011 0.030075
0.030577 0.716165 0.030079
0.030573 0.715314 0.030084
0.030567 0.714243 0.030089
0.030560 0.712729 0.030096
0.030550 0.710701 0.030106
0.030538 0.707976 0.030119
0.083549 0.662812 0.030232
0.231013 0.644127 0.030138
0.384457 0.628730 0.029982
0.526050 0.612247 0.029814
0.645387 0.592498 0.029695
0.739549 0.567088 0.029674
0.810617 0.532484 0.029779
0.862841 0.482724 0.030004
0.900835 0.406798 0.030269
0.928953 0.282994 0.030328
0.952016 0.072632 0.030328
0.971341 0.030326 0.030328
0.978260 0.030326 0.030328
0.983298 0.030326 0.030328
0.987007 0.030326 0.030328
0.989768 0.030326 0.030328
0.991845 0.030326 0.030328
0.993241 0.030326 0.030328
0.993241 0.030326 0.030328
0.993241 0.030326 0.030328
0.993241 0.030326 0.030328
0.993241 0.030326 0.030328
0.993241 0.030326 0.030328
0.031046 0.785295 0.029611
0.031041 0.784776 0.029615
0.031037 0.784254 0.029620
0.031032 0.783731 0.029624
0.031028 0.783205 0.029628
0.031023 0.782677 0.029633
0.031018 0.782013 0.029639
0.031010 0.781075 0.029646
0.031000 0.779821 0.029657
0.030986 0.778140 0.029671
0.030967 0.775876 0.029689
0.117679 0.733050 0.029819
0.297352 0.717079 0.029515
0.466535 0.703545 0.029148
0.607720 0.688881 0.028831
0.716734 0.671105 0.028646
0.797013 0.647895 0.028637
0.854589 0.615642 0.028829
0.895363 0.567894 0.029235
0.924194 0.491750 0.029830
0.945136 0.358458 0.030324
0.962567 0.103856 0.030328
0.978079 0.030326 0.030328
0.983199 0.030326 0.030328
0.986952 0.030326 0.030328
0.989737 0.030326 0.030328
0.991827 0.030326 0.030328
0.993241 0.030326 0.030328
0.993241 0.030326 0.030328
0.993241 0.030326 0.030328
0.993241 0.030326 0.030328
0.993241 0.030326 0.030328
0.993241 0.030326 0.030328
0.031571 0.838445 0.029086
0.031567 0.838135 0.029089
0.031564 0.837825 0.029093
0.031560 0.837513 0.029096
0.031557 0.837200 0.029100
0.031553 0.836885 0.029103
0.031549 0.836491 0.029108
0.031543 0.835934 0.029114
0.031534 0.835192 0.029122
0.031523 0.834198 0.029133
0.031509 0.832864 0.029148
0.031489 0.831066 0.029167
0.160837 0.792647 0.029167
0.372828 0.779474 0.028565
0.550293 0.768110 0.027971
0.683596 0.755691 0.027534
0.778435 0.740493 0.027312
0.844296 0.720398 0.027321
0.889668 0.691968 0.027575
0.920901 0.648736 0.028110
0.942443 0.576790 0.028982
0.957599 0.441188 0.030076
0.970580 0.144036 0.030328
0.983065 0.030326 0.030328
0.986878 0.030326 0.030328
0.989695 0.030326 0.030328
0.991803 0.030326 0.030328
0.993241 0.030326 0.030328
0.993241 0.030326 0.030328
0.993241 0.030326 0.030328
0.993241 0.030326 0.030328
0.993241 0.030326 0.030328
0.993241 0.030326 0.030328
0.032078 0.879798 0.028578
0.032076 0.879619 0.028580
0.032074 0.879439 0.028583
0.032071 0.879260 0.028585
0.032069 0.879079 0.028588
0.032066 0.878898 0.028590
0.032063 0.878671 0.028593
0.032059 0.878351 0.028597
0.032053 0.877925 0.028603
0.032046 0.877356 0.028610
0.032036 0.876594 0.028620
0.032022 0.875571 0.028634
0.032004 0.874190 0.028652
0.213958 0.841122 0.028368
0.454597 0.830582 0.027418
0.631046 0.821392 0.026632
0.750541 0.811294 0.026126
0.829659 0.798850 0.025896
0.882092 0.782231 0.025918
0.917153 0.758367 0.026196
0.940799 0.721234 0.026786
0.956755 0.657018 0.027819
0.967463 0.526968 0.029430
0.976664 0.194449 0.030328
0.986778 0.030326 0.030328
0.989639 0.030326 0.030328
0.991771 0.030326 0.030328
0.993241 0.030326 0.030328
0.993241 0.030326 0.030328
0.993241 0.030326 0.030328
0.993241 0.030326 0.030328
0.993241 0.030326 0.030328
0.993241 0.030326 0.030328
0.032520 0.911089 0.028136
0.032519 0.910988 0.028138
0.032517 0.910887 0.028139
0.032516 0.910785 0.028141
0.032514 0.910684 0.028142
0.032513 0.910582 0.028144
0.032511 0.910454 0.028146
0.032508 0.910274 0.028148
0.032504 0.910035 0.028152
0.032500 0.909716 0.028157
0.032493 0.909290 0.028163
0.032485 0.908719 0.028171
0.032474 0.907952 0.028183
0.032458 0.906917 0.028198
0.277366 0.879277 0.027486
0.538551 0.871037 0.026193
0.704752 0.863818 0.025290
0.807010 0.855862 0.024774
0.870821 0.846014 0.024556
0.911653 0.832765 0.024583
0.938407 0.813521 0.024851
0.956211 0.783019 0.025425
0.968011 0.728542 0.026490
0.975443 0.610783 0.028423
0.981299 0.255871 0.030328
0.989563 0.030326 0.030328
0.991729 0.030326 0.030328
0.993241 0.030326 0.030328
0.993241 0.030326 0.030328
0.993241 0.030326 0.030328
0.993241 0.030326 0.030328
0.993241 0.030326 0.030328
0.993241 0.030326 0.030328
0.032880 0.934323 0.027776
0.032879 0.934267 0.027777
0.032878 0.934211 0.027778
0.032878 0.934155 0.027779
0.032877 0.934098 0.027780
0.032876 0.934042 0.027781
0.032875 0.933971 0.027782
0.032873 0.933871 0.027783
0.032871 0.933738 0.027785
0.032868 0.933562 0.027788
0.032864 0.933327 0.027792
0.032859 0.933013 0.027797
0.032853 0.932592 0.027804
0.032843 0.932026 0.027813
0.032831 0.931262 0.027825
0.350270 0.908600 0.026559
0.620064 0.902262 0.024988
0.768772 0.896706 0.024057
0.852933 0.890580 0.023575
0.903094 0.882979 0.023384
0.934420 0.872704 0.023409
0.954696 0.857657 0.023645
0.968094 0.833476 0.024156
0.976861 0.789177 0.025149
0.981993 0.687981 0.027171
0.984848 0.327950 0.030328
0.991671 0.030326 0.030328
0.993241 0.030326 0.030328
0.993241 0.030326 0.030328
0.993241 0.030326 0.030328
0.993241 0.030326 0.030328
0.993241 0.030326 0.030328
0.993241 0.030326 0.030328
0.033162 0.951378 0.027494
0.033162 0.951347 0.027495
0.033161 0.951316 0.027495
0.033161 0.951285 0.027496
0.033160 0.951254 0.027496
0.033159 0.951223 0.027497
0.033159 0.951183 0.027498
0.033158 0.951129 0.027498
0.033157 0.951056 0.027500
0.033155 0.950959 0.027501
0.033153 0.950830 0.027504
0.033150 0.950658 0.027506
0.033146 0.950428 0.027510
0.033141 0.950120 0.027516
0.033134 0.949707 0.027522
0.033124 0.949148 0.027532
0.430406 0.930775 0.025612
0.694997 0.925950 0.023873
0.822080 0.921730 0.022992
0.889245 0.917084 0.022572
0.927967 0.911318 0.022411
0.951784 0.903501 0.022432
0.967113 0.891993 0.022626
0.977224 0.873321 0.023054
0.983800 0.838473 0.023914
0.987387 0.755299 0.025825
0.987729 0.408694 0.030181
0.993241 0.030326 0.030328
0.993241 0.030326 0.030328
0.993241 0.030326 0.030328
0.993241 0.030326 0.030328
0.993241 0.030326 0.030328
0.993241 0.030326 0.030328
0.033377 0.963825 0.027279
0.033377 0.963808 0.027280
0.033376 0.963791 0.027280
0.033376 0.963773 0.027280
0.033376 0.963756 0.027280
0.033376 0.963739 0.027281
0.033375 0.963718 0.027281
0.033375 0.963688 0.027282
0.033374 0.963648 0.027282
0.033373 0.963595 0.027283
0.033372 0.963524 0.027285
0.033370 0.963430 0.027286
0.033368 0.963305 0.027288
0.033365 0.963137 0.027291
0.033361 0.962913 0.027295
0.033356 0.962612 0.027301
0.033349 0.962204 0.027308
0.514085 0.947383 0.024668
0.760510 0.943727 0.022892
0.864996 0.940546 0.022113
0.917387 0.937055 0.021764
0.946930 0.932726 0.021633
0.964961 0.926852 0.021648
0.976558 0.918179 0.021801
0.984230 0.904021 0.022144
0.989220 0.877263 0.022851
0.991801 0.811291 0.024527
0.990373 0.494368 0.029659
0.993241 0.030326 0.030328
0.993241 0.030326 0.030328
0.993241 0.030326 0.030328
0.993241 0.030326 0.030328
0.993241 0.030326 0.030328
0.033539 0.972897 0.027118
0.033539 0.972888 0.027118
0.033538 0.972878 0.027118
0.033538 0.972869 0.027118
0.033538 0.972859 0.027118
0.033538 0.972850 0.027118
0.033538 0.972838 0.027119
0.033537 0.972822 0.027119
0.033537 0.972800 0.027119
0.033536 0.972771 0.027120
0.033536 0.972732 0.027121
0.033535 0.972680 0.027121
0.033534 0.972612 0.027123
0.033532 0.972521 0.027124
0.033530 0.972399 0.027127
0.033527 0.972235 0.027130
0.033523 0.972015 0.027133
0.033517 0.971718 0.027139
0.596773 0.959765 0.023755
0.815361 0.956997 0.022065
0.898680 0.954606 0.021410
0.938909 0.951994 0.021129
0.961304 0.948760 0.021025
0.974945 0.944375 0.021035
0.983749 0.937894 0.021152
0.989609 0.927281 0.021419
0.993443 0.907068 0.021978
0.995374 0.856113 0.023369
0.992930 0.580033 0.028761
0.993241 0.030326 0.030328
0.993241 0.030326 0.030328
0.993241 0.030326 0.030328
0.993241 0.030326 0.030328
0.033659 0.979523 0.026997
0.033659 0.979518 0.026997
0.033659 0.979513 0.026997
0.033659 0.979508 0.026997
0.033659 0.979503 0.026997
0.033659 0.979498 0.026997
0.033659 0.979491 0.026997
0.033659 0.979482 0.026998
0.033658 0.979470 0.026998
0.033658 0.979454 0.026998
0.033658 0.979432 0.026999
0.033657 0.979404 0.026999
0.033657 0.979366 0.027000
0.033656 0.979316 0.027001
0.033654 0.979249 0.027002
0.033653 0.979160 0.027004
0.033651 0.979041 0.027006
0.033648 0.978880 0.027009
0.033644 0.978663 0.027013
0.674069 0.968990 0.022904
0.859704 0.966889 0.021389
0.924651 0.965091 0.020859
0.955243 0.963137 0.020639
0.972180 0.960724 0.020557
0.982522 0.957458 0.020563
0.989239 0.952633 0.020651
0.993750 0.944723 0.020854
0.996732 0.929604 0.021286
0.998234 0.890968 0.022396
0.995426 0.660650 0.027573
0.993241 0.030326 0.030328
0.993241 0.030326 0.030328
0.993241 0.030326 0.030328
0.033749 0.984385 0.026907
0.033749 0.984383 0.026907
0.033749 0.984380 0.026907
0.033749 0.984377 0.026907
0.033749 0.984374 0.026907
0.033749 0.984371 0.026907
0.033749 0.984367 0.026907
0.033749 0.984362 0.026907
0.033749 0.984356 0.026907
0.033749 0.984347 0.026908
0.033748 0.984335 0.026908
0.033748 0.984319 0.026908
0.033748 0.984298 0.026909
0.033747 0.984271 0.026909
0.033747 0.984234 0.026910
0.033746 0.984185 0.026911
0.033744 0.984119 0.026912
0.033743 0.984031 0.026914
0.033741 0.983913 0.026916
0.033738 0.983753 0.026919
0.742649 0.975879 0.022143
0.894610 0.974277 0.020851
0.944450 0.972920 0.020433
0.967600 0.971454 0.020262
0.980420 0.969652 0.020199
0.988293 0.967216 0.020202
0.993451 0.963623 0.020267
0.996951 0.957738 0.020420
0.999296 0.946482 0.020749
1.000000 0.917523 0.021612
0.997328 0.732271 0.026242
0.993241 0.030326 0.030328
0.993241 0.030326 0.030328
0.033817 0.987975 0.026840
0.033817 0.987974 0.026840
0.033817 0.987972 0.026840
0.033817 0.987971 0.026840
0.033817 0.987969 0.026840
0.033816 0.987967 0.026840
0.033816 0.987965 0.026840
0.033816 0.987963 0.026840
0.033816 0.987959 0.026840
0.033816 0.987954 0.026840
0.033816 0.987947 0.026840
0.033816 0.987938 0.026840
0.033816 0.987927 0.026841
0.033815 0.987911 0.026841
0.033815 0.987891 0.026841
0.033815 0.987863 0.026842
0.033814 0.987827 0.026842
0.033813 0.987778 0.026843
0.033812 0.987713 0.026845
0.033810 0.987626 0.026846
0.033808 0.987507 0.026848
0.800761 0.981046 0.021489
0.921573 0.979818 0.020430
0.959450 0.978788 0.020106
0.976949 0.977683 0.019975
0.986685 0.976330 0.019926
0.992713 0.974508 0.019927
0.996702 0.971825 0.019975
0.999440 0.967439 0.020089
1.000000 0.959065 0.020337
1.000000 0.937490 0.020997
0.998652 0.792738 0.024918
0.993241 0.030326 0.030328
0.033867 0.990647 0.026789
0.033867 0.990646 0.026789
0.033867 0.990645 0.026789
0.033867 0.990644 0.026789
0.033867 0.990643 0.026789
0.033867 0.990642 0.026789
0.033867 0.990641 0.026789
0.033867 0.990639 0.026789
0.033867 0.990637 0.026789
0.033867 0.990634 0.026789
0.033867 0.990631 0.026790
0.033867 0.990626 0.026790
0.033867 0.990619 0.026790
0.033866 0.990610 0.026790
0.033866 0.990599 0.026790
0.033866 0.990584 0.026790
0.033865 0.990563 0.026791
0.033865 0.990536 0.026791
0.033864 0.990500 0.026792
0.033863 0.990451 0.026793
0.033862 0.990386 0.026794
0.033860 0.990297 0.026796
0.848169 0.984946 0.020947
0.942144 0.983997 0.020104
0.970792 0.983211 0.019856
0.984044 0.982373 0.019756
0.991474 0.981351 0.019717
0.996120 0.979980 0.019717
0.999229 0.977966 0.019752
1.000000 0.974685 0.019838
1.000000 0.968441 0.020024
1.000000 0.952395 0.020531
0.999859 0.841680 0.023710
0.033905 0.992651 0.026751
0.033905 0.992651 0.026751
0.033905 0.992650 0.026751
0.033905 0.992650 0.026751
0.033905 0.992649 0.026751
0.033905 0.992648 0.026751
0.033905 0.992648 0.026751
0.033905 0.992647 0.026751
0.033905 0.992646 0.026751
0.033905 0.992644 0.026751
0.033905 0.992642 0.026751
0.033905 0.992639 0.026751
0.033905 0.992635 0.026751
0.033905 0.992631 0.026752
0.033905 0.992624 0.026752
0.033904 0.992615 0.026752
0.033904 0.992604 0.026752
0.033904 0.992588 0.026752
0.033904 0.992568 0.026753
0.033903 0.992540 0.026753
0.033902 0.992504 0.026754
0.033901 0.992455 0.026755
0.033900 0.992388 0.026756
0.885723 0.987911 0.020510
0.957733 0.987171 0.019854
