luts/Finish_Kinofarben_Rec709.cube
# Finish: warme Hauttoene, ruhige Gruentoene, weiche Lichter (Rec.709 -> Rec.709), frei gerechnet
# Erzeugt von lut_finish_kinofarben.py
LUT_3D_SIZE 5
0.011516 0.012121 0.012726
0.235273 0.041199 0.017613
0.509418 0.073004 0.008300
0.783851 0.108254 0.002630
0.988061 0.135729 0.000496
0.115943 0.242940 0.109604
0.239912 0.242423 0.028622
0.513594 0.277449 0.013122
0.785604 0.318538 0.001832
0.988392 0.350079 0.000000
0.245044 0.513904 0.215171
0.342049 0.513904 0.152525
0.513904 0.513131 0.040744
0.785613 0.540990 0.027714
0.989541 0.571949 0.017395
0.373974 0.786000 0.321588
0.476069 0.786117 0.274825
0.596441 0.786232 0.154748
0.791667 0.785279 0.048510
0.997417 0.806733 0.028357
0.476562 0.989992 0.392838
0.582735 0.990107 0.354051
0.690151 0.990183 0.244615
0.845586 0.990284 0.120509
1.000000 0.988637 0.052183
0.031941 0.067733 0.252624
0.235369 0.022917 0.252457
0.508772 0.023661 0.233536
0.782106 0.014737 0.181602
0.986087 0.008571 0.142512
0.077026 0.242934 0.234867
0.240395 0.242656 0.244918
0.513766 0.274655 0.236765
0.785604 0.307038 0.230912
0.988392 0.331233 0.226698
0.192108 0.513904 0.309135
0.368360 0.513904 0.352188
0.513904 0.513486 0.257764
0.785779 0.547631 0.245005
0.990256 0.579592 0.234046
0.308818 0.785951 0.398904
0.498963 0.786239 0.456454
0.614614 0.786374 0.377219
0.792500 0.785753 0.264459
0.998171 0.805727 0.248931
0.401948 0.989923 0.459262
0.601263 0.990190 0.528075
0.718086 0.990276 0.464309
0.850389 0.990275 0.341537
0.998072 0.988626 0.272493
0.065601 0.130982 0.521437
0.226967 0.052759 0.522486
0.509709 0.033125 0.520197
0.783539 0.041245 0.522154
0.987402 0.038106 0.498214
0.101467 0.330517 0.514698
0.273704 0.305993 0.514256
0.513808 0.253096 0.514048
0.785604 0.255825 0.502401
0.988392 0.249626 0.467229
0.160140 0.513904 0.488360
0.322398 0.513904 0.500076
0.513904 0.513904 0.513904
0.786084 0.546390 0.507641
0.990761 0.570854 0.500997
0.275005 0.785976 0.556141
0.438560 0.786208 0.571523
0.646692 0.786551 0.615361
0.793485 0.786311 0.519332
0.999184 0.809954 0.506261
0.366380 0.989943 0.607641
0.531785 0.990154 0.628887
0.747172 0.990242 0.689322
0.861002 0.989884 0.608386
0.994226 0.988495 0.533577
0.099764 0.194105 0.789493
0.221063 0.088705 0.792000
0.505986 0.055951 0.790106
0.784141 0.043310 0.787799
0.988013 0.051150 0.794284
0.124797 0.397098 0.785604
0.305673 0.369664 0.785604
0.504777 0.281969 0.785604
0.785604 0.263940 0.785604
0.988392 0.271945 0.793450
0.186051 0.620166 0.785604
0.344967 0.605343 0.785548
0.545956 0.577679 0.785196
0.786184 0.524855 0.784858
0.990388 0.529305 0.780841
0.243219 0.786016 0.742522
0.407129 0.786252 0.752115
0.600777 0.786558 0.763188
0.794453 0.786868 0.774226
1.000000 0.811462 0.766422
0.337680 0.989983 0.781333
0.499900 0.990179 0.792908
0.690739 0.990276 0.810012
0.885388 0.989196 0.860460
0.990680 0.988407 0.794276
0.124993 0.241285 0.989967
0.219339 0.114500 0.993115
0.496320 0.082247 0.991392
0.787374 0.055040 0.989701
0.988204 0.051103 0.988674
0.144447 0.445355 0.988392
0.329359 0.417230 0.988392
0.497617 0.309416 0.988392
0.785062 0.278321 0.988392
0.988392 0.272052 0.988392
0.200385 0.675692 0.987703
0.361601 0.656492 0.987030
0.571115 0.625456 0.986090
0.781235 0.544622 0.986667
0.991096 0.533270 0.984915
0.269738 0.886523 0.978692
0.432526 0.875238 0.976956
0.622250 0.860141 0.975124
0.820666 0.834795 0.973765
1.000000 0.795398 0.973247
0.311530 0.990012 0.924116
0.475116 0.990202 0.934125
0.666767 0.990223 0.947766
0.850944 0.989176 0.971017
0.988914 0.988466 0.987721
