luts/Finish_Kinofarben_Rec709.cube
# Finish: warme Hauttoene, ruhige Gruentoene, weiche Lichter (Rec.709 -> Rec.709), frei gerechnet
# Erzeugt von lut_finish_kinofarben.py
LUT_3D_SIZE 9
0.011516 0.012121 0.012726
0.102503 0.024220 0.015816
0.235273 0.041199 0.017613
0.372246 0.057126 0.013105
0.509418 0.073004 0.008300
0.646669 0.089943 0.004627
0.783851 0.108254 0.002630
0.919294 0.126437 0.001060
0.988061 0.135729 0.000496
0.049166 0.108015 0.060161
0.099935 0.107813 0.027032
0.237067 0.125908 0.018898
0.374370 0.145503 0.011710
0.511600 0.163469 0.005613
0.648640 0.181697 0.001672
0.785325 0.201082 0.000418
0.920001 0.220147 0.000000
0.988392 0.229818 0.000000
0.115943 0.242940 0.109604
0.156094 0.242885 0.085458
0.239912 0.242423 0.028622
0.376866 0.256474 0.020583
0.513594 0.277449 0.013122
0.649754 0.298472 0.006898
0.785604 0.318538 0.001832
0.920001 0.339232 0.000000
0.988392 0.350079 0.000000
0.181807 0.378094 0.160418
0.224401 0.378076 0.143635
0.282400 0.378063 0.085658
0.378054 0.377490 0.032964
0.513904 0.390600 0.025010
0.649754 0.408550 0.020464
0.785604 0.430080 0.014158
0.920001 0.451251 0.008234
0.988392 0.461790 0.005400
0.245044 0.513904 0.215171
0.289974 0.513904 0.202441
0.342049 0.513904 0.152525
0.412564 0.513904 0.089972
0.513904 0.513131 0.040744
0.649754 0.527114 0.030119
0.785613 0.540990 0.027714
0.920566 0.561024 0.021345
0.989541 0.571949 0.017395
0.308122 0.649754 0.270163
0.354853 0.649757 0.259861
0.406765 0.649764 0.217039
0.465077 0.649776 0.156436
0.545807 0.649804 0.094947
0.650491 0.648877 0.047577
0.787566 0.663869 0.032696
0.923513 0.675470 0.029600
0.992878 0.683928 0.026441
0.373974 0.786000 0.321588
0.422426 0.786060 0.312439
0.476069 0.786117 0.274825
0.529399 0.786166 0.218489
0.596441 0.786232 0.154748
0.684805 0.786335 0.094985
0.791667 0.785279 0.048510
0.928077 0.800993 0.030204
0.997417 0.806733 0.028357
0.442041 0.921206 0.368709
0.491576 0.921279 0.360644
0.547057 0.921345 0.327329
0.598451 0.921396 0.275685
0.657564 0.921451 0.213898
0.732041 0.921525 0.150228
0.825605 0.921623 0.092974
0.932090 0.920330 0.048459
1.000000 0.929606 0.036169
0.476562 0.989992 0.392838
0.526432 0.990052 0.385374
0.582735 0.990107 0.354051
0.633719 0.990145 0.304761
0.690151 0.990183 0.244615
0.759371 0.990229 0.180785
0.845586 0.990284 0.120509
0.946782 0.990266 0.071203
1.000000 0.988637 0.052183
0.019583 0.034991 0.111511
0.102283 0.016792 0.112460
0.235365 0.017210 0.105667
0.371463 0.012965 0.080192
0.508021 0.009176 0.054793
0.644668 0.005741 0.030215
0.781410 0.004153 0.007626
0.917210 0.021925 0.004186
0.986287 0.031559 0.003157
0.033213 0.108013 0.111506
0.100121 0.107912 0.115703
0.237240 0.123804 0.110978
0.374461 0.139669 0.106097
0.511640 0.155545 0.101282
0.648628 0.171469 0.096750
0.785282 0.187477 0.092723
0.920000 0.203432 0.089448
0.988392 0.211591 0.088025
0.093083 0.242959 0.146477
0.166969 0.242820 0.165040
0.240114 0.242517 0.117269
0.377073 0.259300 0.109338
0.513703 0.280136 0.102438
0.649754 0.299517 0.097456
0.785604 0.317889 0.093395
0.920001 0.335439 0.089736
0.988392 0.344210 0.087965
0.152978 0.378105 0.189299
0.232469 0.378064 0.216399
0.289858 0.378055 0.177335
0.378054 0.377636 0.121914
0.513904 0.391247 0.115235
0.649754 0.411756 0.109380
0.785604 0.433206 0.103335
0.920001 0.453602 0.097975
0.988392 0.463654 0.095456
0.209662 0.513904 0.236667
0.295588 0.513904 0.271330
0.354350 0.513904 0.241855
0.416089 0.513904 0.181172
0.513904 0.513277 0.129695
0.649754 0.526592 0.120958
0.785654 0.543187 0.117065
0.920776 0.564335 0.109963
0.989823 0.575331 0.105972
0.265657 0.649754 0.284254
0.358719 0.649762 0.326253
0.420383 0.649778 0.302699
0.473647 0.649793 0.247948
0.547791 0.649823 0.185265
0.650663 0.649047 0.136306
0.787808 0.663481 0.123195
0.923850 0.676505 0.119212
0.993272 0.686007 0.115427
0.323707 0.785940 0.328675
0.425175 0.786094 0.376902
0.489754 0.786176 0.356816
0.541286 0.786228 0.308292
0.602523 0.786288 0.245959
0.686169 0.786384 0.184549
0.792007 0.785473 0.137022
0.928402 0.800693 0.120341
0.997728 0.806289 0.118783
0.384075 0.921115 0.368494
0.493338 0.921314 0.423901
0.559953 0.921404 0.406589
0.611844 0.921458 0.363571
0.666770 0.921508 0.304999
0.736284 0.921573 0.241132
0.826469 0.921662 0.182327
0.932328 0.920509 0.137103
1.000000 0.929640 0.125174
0.416656 0.989911 0.390497
0.527716 0.990080 0.448214
0.595044 0.990150 0.432238
0.647379 0.990190 0.391770
0.700451 0.990223 0.335489
0.764986 0.990261 0.272166
0.847347 0.990308 0.210654
0.946229 0.990185 0.161102
0.999712 0.988651 0.142315
0.031941 0.067733 0.252624
0.095204 0.033033 0.251736
0.235369 0.022917 0.252457
0.372107 0.026657 0.252727
0.508772 0.023661 0.233536
0.645434 0.019192 0.208117
0.782106 0.014737 0.181602
0.917303 0.010582 0.155567
0.986087 0.008571 0.142512
0.045383 0.150014 0.250244
0.117114 0.139496 0.249865
0.237317 0.113010 0.249535
0.374170 0.114136 0.242279
0.510840 0.109736 0.217068
0.647475 0.105475 0.190724
0.784052 0.101650 0.165219
0.919073 0.098200 0.140882
0.987733 0.096523 0.128762
0.077026 0.242934 0.234867
0.144003 0.242816 0.238962
0.240395 0.242656 0.244918
0.377276 0.258607 0.240549
0.513766 0.274655 0.236765
0.649754 0.290829 0.233735
0.785604 0.307038 0.230912
0.920001 0.323073 0.228119
0.988392 0.331233 0.226698
0.135801 0.378100 0.266682
0.202365 0.378067 0.273811
0.305282 0.378054 0.297196
0.378054 0.377845 0.249984
0.513904 0.394905 0.243717
0.649754 0.415936 0.237987
0.785604 0.435367 0.233306
0.920001 0.453546 0.229287
0.988406 0.462542 0.227371
0.192108 0.513904 0.309135
0.259488 0.513904 0.319498
0.368360 0.513904 0.352188
0.425713 0.513904 0.313177
0.513904 0.513486 0.257764
0.649754 0.527097 0.251085
0.785779 0.547631 0.245005
0.921128 0.568991 0.237797
0.990256 0.579592 0.234046
0.249234 0.649754 0.354958
0.316483 0.649757 0.366897
0.431754 0.649799 0.406773
0.490717 0.649828 0.377041
0.552659 0.649857 0.316097
0.650938 0.649296 0.264022
0.788170 0.662809 0.253508
0.924399 0.679442 0.247387
0.993890 0.690133 0.242900
0.308818 0.785951 0.398904
0.376052 0.786043 0.410653
0.498963 0.786239 0.456454
0.561081 0.786321 0.432315
0.614614 0.786374 0.377219
0.689131 0.786457 0.314057
0.792500 0.785753 0.264459
0.928864 0.800166 0.250490
0.998171 0.805727 0.248931
0.370605 0.921132 0.438870
0.437213 0.921242 0.450564
0.567149 0.921462 0.503423
0.631693 0.921543 0.483314
0.683198 0.921589 0.434767
0.744471 0.921641 0.372480
0.828164 0.921717 0.311324
0.932648 0.920764 0.264761
1.000000 0.929630 0.253505
0.401948 0.989923 0.459262
0.468053 0.990016 0.471066
0.601263 0.990190 0.528075
0.666695 0.990246 0.509756
0.718086 0.990276 0.464309
0.775412 0.990304 0.403937
0.850389 0.990275 0.341537
0.945083 0.990007 0.291165
0.998072 0.988626 0.272493
0.048597 0.099401 0.387291
0.091836 0.051049 0.388329
0.232968 0.034805 0.387593
0.372441 0.028045 0.386474
0.509385 0.033141 0.390105
0.646212 0.033275 0.380578
0.782907 0.029889 0.360094
0.918055 0.025594 0.335840
0.986797 0.023324 0.322887
0.058747 0.182563 0.384286
0.134202 0.171056 0.383884
0.233404 0.127296 0.384409
0.374618 0.118081 0.383208
0.511538 0.122442 0.384976
0.648179 0.120369 0.368913
0.784653 0.116153 0.345029
0.919531 0.111750 0.319565
0.988110 0.109571 0.306534
0.091232 0.294479 0.380131
0.156571 0.288206 0.379768
0.257199 0.274287 0.379363
0.377324 0.247820 0.379149
0.513670 0.249073 0.372653
0.649728 0.244827 0.348361
0.785604 0.240755 0.323155
0.920001 0.237149 0.298997
0.988392 0.235439 0.287002
0.119896 0.378091 0.359644
0.186512 0.378063 0.364279
0.282301 0.378054 0.371140
0.378054 0.378054 0.378054
0.513904 0.394262 0.375231
0.649754 0.410471 0.372408
0.785604 0.426679 0.369585
0.920001 0.442714 0.366792
0.988413 0.450877 0.365344
0.176865 0.513904 0.393598
0.242789 0.513904 0.399473
0.338268 0.513904 0.409581
0.441132 0.513904 0.433046
0.513904 0.513695 0.385834
0.649754 0.530755 0.379567
0.785971 0.551838 0.373365
0.921478 0.571227 0.367302
0.990647 0.580692 0.364198
0.231855 0.649754 0.433321
0.298508 0.649758 0.441074
0.395587 0.649790 0.455029
0.504985 0.649865 0.487041
0.562596 0.649902 0.447700
0.651242 0.649548 0.391701
0.788588 0.663373 0.383098
0.925017 0.683940 0.374698
0.994546 0.694987 0.370110
0.290644 0.785960 0.473251
0.358549 0.786052 0.482047
0.456467 0.786197 0.497432
0.572811 0.786393 0.535929
0.632109 0.786470 0.505764
0.694306 0.786535 0.444494
0.792993 0.786032 0.391894
0.929314 0.799513 0.380689
0.998652 0.806734 0.378214
0.352536 0.921142 0.510910
0.420779 0.921253 0.520867
0.518078 0.921408 0.537278
0.640884 0.921600 0.583043
0.702879 0.921668 0.558973
0.756371 0.921709 0.503913
0.830921 0.921768 0.440995
0.932940 0.921015 0.392456
1.000000 0.929512 0.382198
0.384123 0.989932 0.530569
0.452216 0.990026 0.541176
0.548813 0.990146 0.558150
0.674665 0.990280 0.608123
0.737683 0.990309 0.586646
0.789107 0.990266 0.535740
0.854467 0.990132 0.474139
0.943688 0.989774 0.421873
0.996191 0.988566 0.402981
0.065601 0.130982 0.521437
0.091118 0.067989 0.523298
0.226967 0.052759 0.522486
0.372651 0.037516 0.521515
0.509709 0.033125 0.520197
0.646688 0.038277 0.523937
0.783539 0.041245 0.522154
0.918694 0.039698 0.508015
0.987402 0.038106 0.498214
0.073856 0.214341 0.518316
0.151280 0.202618 0.517918
0.229736 0.145421 0.519131
0.373154 0.129084 0.518185
0.511853 0.123169 0.516981
0.648624 0.128373 0.521033
0.785104 0.129580 0.514795
0.919857 0.126860 0.497085
0.988347 0.124931 0.486080
0.101467 0.330517 0.514698
0.168096 0.321910 0.514493
0.273704 0.305993 0.514256
0.373111 0.262181 0.514472
0.513808 0.253096 0.514048
0.649754 0.257701 0.517277
0.785604 0.255825 0.502401
0.920001 0.251811 0.479714
0.988392 0.249626 0.467229
0.134152 0.437353 0.513904
0.199766 0.432351 0.513904
0.293564 0.423770 0.513904
0.393921 0.409919 0.513904
0.513904 0.383488 0.513904
0.649754 0.384865 0.508153
0.785604 0.380670 0.484172
0.920001 0.376646 0.459271
0.988392 0.374763 0.446870
0.160140 0.513904 0.488360
0.226645 0.513904 0.493162
0.322398 0.513904 0.500076
0.418151 0.513904 0.506990
0.513904 0.513904 0.513904
0.649759 0.530113 0.511075
0.786084 0.546390 0.507641
0.921604 0.562585 0.503405
0.990761 0.570854 0.500997
0.217797 0.649754 0.521561
0.283775 0.649760 0.526932
0.378923 0.649795 0.534958
0.474837 0.649857 0.544507
0.578386 0.649955 0.567091
0.651574 0.649805 0.519344
0.789125 0.667108 0.510890
0.925646 0.688227 0.502485
0.995157 0.698346 0.498581
0.275005 0.785976 0.556141
0.341771 0.786066 0.561910
0.438560 0.786208 0.571523
0.536496 0.786362 0.584374
0.646692 0.786551 0.615361
0.704537 0.786622 0.575718
0.793485 0.786311 0.519332
0.929792 0.800012 0.510241
0.999184 0.809954 0.506261
0.335333 0.921157 0.589649
0.402793 0.921265 0.596637
0.500571 0.921418 0.608683
0.598488 0.921562 0.624058
0.714518 0.921723 0.662792
0.773626 0.921777 0.632755
0.835818 0.921818 0.571654
0.933201 0.921261 0.520190
1.000000 0.929161 0.512094
0.366380 0.989943 0.607641
0.433982 0.990035 0.615468
0.531785 0.990154 0.628887
0.629095 0.990253 0.645359
0.747172 0.990242 0.689322
0.806061 0.990063 0.664777
0.861002 0.989884 0.608386
0.942298 0.989504 0.553151
0.994226 0.988495 0.533577
0.082691 0.162541 0.655452
0.091016 0.084476 0.658167
0.223250 0.070939 0.657268
0.366048 0.054026 0.656343
0.511836 0.041086 0.655228
0.647000 0.038199 0.653886
0.783877 0.043376 0.657778
0.919109 0.047937 0.660374
0.987810 0.048631 0.657554
0.089642 0.245963 0.652479
0.168244 0.234209 0.652123
0.228203 0.162891 0.653878
0.366746 0.146664 0.653025
0.512654 0.132121 0.652114
0.648847 0.128317 0.651114
0.785312 0.133597 0.655626
0.919986 0.137340 0.656586
0.988392 0.137354 0.652093
0.112665 0.364256 0.649852
0.181225 0.354324 0.649790
0.289806 0.337799 0.649754
0.368962 0.280427 0.649917
0.511852 0.264222 0.649762
0.649754 0.258506 0.649754
0.785604 0.263940 0.655188
0.920001 0.265320 0.650036
0.988392 0.264254 0.642244
0.143967 0.476078 0.649754
0.209073 0.469487 0.649754
0.304339 0.457662 0.649754
0.409789 0.441784 0.649754
0.509340 0.397936 0.649754
0.649754 0.388922 0.649754
0.785604 0.393551 0.653127
0.920001 0.391713 0.638471
0.988392 0.389765 0.627413
0.174770 0.579987 0.649754
0.240998 0.575307 0.649754
0.335616 0.568201 0.649754
0.429414 0.559620 0.649754
0.529771 0.545769 0.649754
0.649765 0.519340 0.649740
0.785923 0.520760 0.643593
0.920847 0.516687 0.619205
0.989588 0.514632 0.606019
0.200238 0.649754 0.617295
0.266810 0.649764 0.622011
0.362835 0.649803 0.628574
0.459047 0.649868 0.634899
0.555420 0.649957 0.641015
0.651932 0.650065 0.646954
0.789550 0.666526 0.641858
0.925947 0.682847 0.636493
0.995399 0.691158 0.633708
0.261357 0.785997 0.646310
0.328022 0.786088 0.650716
0.423958 0.786229 0.657211
0.519911 0.786379 0.664203
0.616482 0.786535 0.672906
0.720581 0.786711 0.694783
0.793972 0.786590 0.646775
0.930357 0.803702 0.638019
0.999731 0.814647 0.633707
0.320952 0.921180 0.675575
0.387633 0.921286 0.680610
0.483819 0.921433 0.688591
0.580576 0.921572 0.698200
0.678322 0.921700 0.711251
0.788025 0.921828 0.742705
0.845672 0.921868 0.703213
0.933422 0.921502 0.647975
1.000000 0.928491 0.643751
0.351205 0.989961 0.691627
0.417911 0.990049 0.697307
0.514242 0.990163 0.706537
0.611225 0.990259 0.717878
0.708454 0.990290 0.733260
0.816954 0.989815 0.774024
0.872594 0.989539 0.742740
0.941415 0.989218 0.685067
0.992342 0.988435 0.664069
0.099764 0.194105 0.789493
0.094678 0.104053 0.792809
0.221063 0.088705 0.792000
0.360276 0.072122 0.791089
0.505986 0.055951 0.790106
0.650425 0.045193 0.788990
0.784141 0.043310 0.787799
0.919322 0.048490 0.791998
0.988013 0.051150 0.794284
0.105632 0.277580 0.786928
0.184990 0.265854 0.786654
0.227548 0.179839 0.788694
0.362175 0.164944 0.787910
0.506036 0.148163 0.787187
0.651221 0.135988 0.786471
0.785429 0.133568 0.785866
0.920001 0.138900 0.790980
0.988392 0.141636 0.793716
0.124797 0.397098 0.785604
0.195087 0.386412 0.785604
0.305673 0.369664 0.785604
0.366802 0.298054 0.785605
0.504777 0.281969 0.785604
0.650078 0.267577 0.785604
0.785604 0.263940 0.785604
0.920001 0.269316 0.790980
0.988392 0.271945 0.793450
0.153329 0.511995 0.785604
0.219212 0.503989 0.785604
0.317099 0.490168 0.785604
0.425656 0.473649 0.785604
0.504920 0.416249 0.785604
0.647708 0.400070 0.785604
0.785604 0.394356 0.785604
0.920001 0.399732 0.790980
0.988397 0.401292 0.790701
0.186051 0.620166 0.785604
0.251207 0.614566 0.785604
0.344967 0.605343 0.785548
0.440344 0.593534 0.785405
0.545956 0.577679 0.785196
0.645356 0.533810 0.785391
0.786184 0.524855 0.784858
0.921497 0.529603 0.787116
0.990388 0.529305 0.780841
0.215850 0.722622 0.784179
0.282845 0.718077 0.783734
0.378860 0.711445 0.783018
0.474080 0.704425 0.782242
0.568479 0.695930 0.781470
0.669363 0.682154 0.780793
0.789660 0.655767 0.780389
0.925516 0.657390 0.772982
0.994542 0.655444 0.760649
0.243219 0.786016 0.742522
0.310375 0.786109 0.746488
0.407129 0.786252 0.752115
0.503938 0.786403 0.757671
0.600777 0.786558 0.763188
0.697624 0.786714 0.768696
0.794453 0.786868 0.774226
0.930774 0.803178 0.768960
1.000000 0.811462 0.766422
0.307123 0.921207 0.767092
0.373977 0.921312 0.771258
0.470083 0.921457 0.777442
0.565981 0.921591 0.783980
0.661735 0.921713 0.791200
0.757934 0.921818 0.800309
0.861381 0.921911 0.822814
0.933187 0.921678 0.776347
0.999300 0.928237 0.775935
0.337680 0.989983 0.781333
0.404233 0.990069 0.785927
0.499900 0.990179 0.792908
0.595451 0.990269 0.800552
0.690739 0.990276 0.810012
0.784419 0.989899 0.825717
0.885388 0.989196 0.860460
0.943014 0.988928 0.818375
0.990680 0.988407 0.794276
0.116536 0.225360 0.922279
0.112009 0.136303 0.925342
0.219779 0.105883 0.925283
0.356036 0.090186 0.924388
0.499374 0.073148 0.923500
0.645817 0.058399 0.922569
0.788400 0.049581 0.921612
0.919499 0.048446 0.920754
0.988146 0.051117 0.923105
0.121386 0.308916 0.920371
0.201241 0.297240 0.920222
0.227274 0.196285 0.922166
0.359141 0.182797 0.921468
0.499681 0.165954 0.920898
0.645467 0.150280 0.920412
0.788828 0.140317 0.920070
0.920001 0.138900 0.920001
0.988392 0.141636 0.922737
0.137651 0.429145 0.920001
0.209378 0.418012 0.920001
0.321371 0.401188 0.920001
0.365469 0.314993 0.920001
0.499609 0.300213 0.920001
0.643021 0.283561 0.920001
0.787688 0.271566 0.920001
0.920001 0.269316 0.920001
0.988392 0.272052 0.922737
0.163484 0.545950 0.920001
0.230496 0.536918 0.920001
0.330786 0.521920 0.920001
0.441353 0.505173 0.920001
0.502671 0.433718 0.920001
0.640693 0.417622 0.920001
0.785989 0.403278 0.920001
0.920001 0.399732 0.920001
0.988446 0.402475 0.922666
0.195395 0.657435 0.919747
0.260671 0.650722 0.919564
0.355530 0.639562 0.919250
0.453661 0.625796 0.918901
0.562516 0.609327 0.918484
0.641346 0.551984 0.919303
0.784660 0.535892 0.918685
0.921852 0.530412 0.917621
0.990897 0.533241 0.919515
0.230187 0.763394 0.916638
0.296130 0.758366 0.916067
0.390671 0.750543 0.915228
0.485025 0.741429 0.914404
0.580852 0.729716 0.913649
0.686823 0.713929 0.912924
0.786099 0.670153 0.913582
0.926186 0.661447 0.912048
0.995452 0.664308 0.913659
0.260694 0.865447 0.911756
0.328015 0.860881 0.911024
0.424886 0.854390 0.909966
0.521173 0.847799 0.908934
0.616577 0.840819 0.907956
0.711056 0.832375 0.907088
0.811881 0.818640 0.906398
0.930876 0.792533 0.906019
0.999965 0.794931 0.906735
0.288596 0.921229 0.862740
0.355833 0.921333 0.866599
0.452596 0.921478 0.872215
0.549284 0.921611 0.877928
0.645872 0.921730 0.883768
0.742337 0.921832 0.889766
0.838656 0.921913 0.895953
0.932344 0.921764 0.904132
0.997393 0.929447 0.907007
0.322051 0.990004 0.874639
0.389030 0.990088 0.878763
0.485321 0.990195 0.884862
0.581396 0.990283 0.891199
0.676450 0.990241 0.898790
0.768692 0.989827 0.909947
0.859405 0.989225 0.923441
0.953540 0.988647 0.945393
0.989391 0.988429 0.922633
0.124993 0.241285 0.989967
0.120779 0.152611 0.992800
0.219339 0.114500 0.993115
0.354341 0.099314 0.992234
0.496320 0.082247 0.991392
0.642435 0.066440 0.990543
0.787374 0.055040 0.989701
0.922359 0.051150 0.988958
0.988204 0.051103 0.988674
0.129317 0.324896 0.988492
0.209356 0.313250 0.988421
0.227203 0.204572 0.990133
0.357972 0.191752 0.989491
0.496917 0.175194 0.988999
0.641818 0.158749 0.988620
0.787080 0.146280 0.988405
0.922737 0.141636 0.988392
0.988392 0.141636 0.988392
0.144447 0.445355 0.988392
0.216799 0.434066 0.988392
0.329359 0.417230 0.988392
0.364976 0.323475 0.988392
0.497617 0.309416 0.988392
0.639395 0.292568 0.988392
0.785062 0.278321 0.988392
0.922714 0.272066 0.988392
0.988392 0.272052 0.988392
0.169022 0.562858 0.988392
0.236630 0.553422 0.988392
0.337998 0.538012 0.988392
0.449341 0.521215 0.988392
0.501914 0.442393 0.988392
0.637819 0.426914 0.988392
0.782589 0.410960 0.988392
0.922534 0.402604 0.988382
0.988487 0.402481 0.988270
0.200385 0.675692 0.987703
0.265945 0.668455 0.987440
0.361601 0.656492 0.987030
0.461064 0.642060 0.986599
0.571115 0.625456 0.986090
0.640297 0.560996 0.987351
0.781235 0.544622 0.986667
0.924179 0.533649 0.985638
0.991096 0.533270 0.984915
0.236200 0.783390 0.983879
0.301863 0.777952 0.983279
0.396207 0.769332 0.982419
0.490883 0.759156 0.981599
0.588011 0.746299 0.980852
0.695752 0.730106 0.980105
0.784019 0.679517 0.981251
0.927597 0.665437 0.979904
0.995701 0.664344 0.978995
0.269738 0.886523 0.978692
0.336645 0.881957 0.977969
0.432526 0.875238 0.976956
0.527739 0.868142 0.975998
0.622250 0.860141 0.975124
0.717001 0.849883 0.974382
0.820666 0.834795 0.973765
0.930181 0.798247 0.973918
1.000000 0.795398 0.973247
0.298648 0.988349 0.973827
0.365501 0.983504 0.973267
0.461690 0.976493 0.972529
0.557865 0.969526 0.971879
0.654115 0.962681 0.971327
0.750097 0.956016 0.971416
0.843480 0.948858 0.973500
0.937414 0.937389 0.976274
0.997161 0.923989 0.977117
0.311530 0.990012 0.924116
0.378621 0.990096 0.928165
0.475116 0.990202 0.934125
0.571470 0.990288 0.940267
0.666767 0.990223 0.947766
0.759457 0.989785 0.958619
0.850944 0.989176 0.971017
0.941937 0.988642 0.982661
0.988914 0.988466 0.987721
