luts/Finish_Kinofarben_Rec709.cube
# Finish: warme Hauttoene, ruhige Gruentoene, weiche Lichter (Rec.709 -> Rec.709), frei gerechnet
# Erzeugt von lut_finish_kinofarben.py
LUT_3D_SIZE 33
0.011516 0.012121 0.012726
0.011516 0.012121 0.012726
0.037209 0.015458 0.013281
0.069926 0.019822 0.014443
0.102503 0.024220 0.015816
0.135146 0.028602 0.017089
0.168047 0.032920 0.017976
0.201375 0.037130 0.018222
0.235273 0.041199 0.017613
0.269489 0.045187 0.016526
0.303726 0.049171 0.015410
0.337978 0.053151 0.014269
0.372246 0.057126 0.013105
0.406526 0.061099 0.011923
0.440816 0.065069 0.010726
0.475114 0.069038 0.009517
0.509418 0.073004 0.008300
0.543724 0.076971 0.007078
0.578032 0.080936 0.005855
0.612351 0.085371 0.005161
0.646669 0.089943 0.004627
0.680981 0.094517 0.004103
0.715284 0.099093 0.003592
0.749575 0.103672 0.003100
0.783851 0.108254 0.002630
0.818110 0.112841 0.002185
0.852349 0.117433 0.001771
0.886560 0.122030 0.001390
0.919294 0.126437 0.001060
0.946565 0.130116 0.000815
0.966526 0.132814 0.000653
0.979796 0.134610 0.000554
0.988061 0.135729 0.000496
0.011516 0.012121 0.012726
0.011516 0.012121 0.012726
0.037209 0.015458 0.013281
0.069926 0.019822 0.014443
0.102503 0.024220 0.015816
0.135146 0.028602 0.017089
0.168047 0.032920 0.017976
0.201375 0.037130 0.018222
0.235273 0.041199 0.017613
0.269489 0.045187 0.016526
0.303726 0.049171 0.015410
0.337978 0.053151 0.014269
0.372246 0.057126 0.013105
0.406526 0.061099 0.011923
0.440816 0.065069 0.010726
0.475114 0.069038 0.009517
0.509418 0.073004 0.008300
0.543724 0.076971 0.007078
0.578032 0.080936 0.005855
0.612351 0.085371 0.005161
0.646669 0.089943 0.004627
0.680981 0.094517 0.004103
0.715284 0.099093 0.003592
0.749575 0.103672 0.003100
0.783851 0.108254 0.002630
0.818110 0.112841 0.002185
0.852349 0.117433 0.001771
0.886560 0.122030 0.001390
0.919294 0.126437 0.001060
0.946565 0.130116 0.000815
0.966526 0.132814 0.000653
0.979796 0.134610 0.000554
0.988061 0.135729 0.000496
0.021208 0.039195 0.027294
0.021208 0.039195 0.027294
0.035044 0.039235 0.018591
0.067608 0.044101 0.019126
0.100343 0.049489 0.019658
0.133535 0.054340 0.019761
0.167313 0.058822 0.019112
0.201524 0.063075 0.017883
0.235760 0.067248 0.016657
0.270014 0.071371 0.015432
0.304282 0.075459 0.014202
0.338563 0.079521 0.012967
0.372853 0.083565 0.011726
0.407152 0.087595 0.010481
0.441456 0.091614 0.009232
0.475763 0.095625 0.007983
0.510072 0.099629 0.006735
0.544379 0.103629 0.005492
0.578693 0.108000 0.004704
0.613006 0.112583 0.004178
0.647311 0.117167 0.003665
0.681603 0.121753 0.003170
0.715882 0.126342 0.002696
0.750144 0.130935 0.002247
0.784386 0.135532 0.001828
0.818605 0.140134 0.001442
0.852801 0.144741 0.001093
0.886963 0.149355 0.000785
0.919646 0.153779 0.000532
0.946870 0.157473 0.000356
0.966796 0.160182 0.000248
0.980041 0.161985 0.000186
0.988291 0.163109 0.000152
0.033582 0.074006 0.046135
0.033582 0.074006 0.046135
0.044599 0.074039 0.039357
0.065608 0.073994 0.025634
0.099380 0.077567 0.024308
0.133598 0.082764 0.022403
0.167854 0.087995 0.020500
0.202126 0.092974 0.018744
0.236410 0.097737 0.017101
0.270704 0.102334 0.015537
0.305007 0.106809 0.014032
0.339315 0.111193 0.012569
0.373627 0.115506 0.011139
0.407941 0.119765 0.009738
0.442254 0.123982 0.008361
0.476564 0.128165 0.007008
0.510870 0.132322 0.005677
0.545169 0.136458 0.004371
0.579467 0.140930 0.003543
0.613759 0.145634 0.003048
0.648036 0.150329 0.002577
0.682295 0.155019 0.002133
0.716533 0.159704 0.001720
0.750747 0.164388 0.001341
0.784936 0.169071 0.001002
0.819097 0.173755 0.000705
0.853226 0.178442 0.000455
0.887316 0.183131 0.000255
0.919924 0.187626 0.000116
0.947081 0.191377 0.000040
0.966955 0.194127 0.000009
0.980164 0.195957 0.000001
0.988392 0.197098 0.000000
0.049166 0.108015 0.060161
0.049166 0.108015 0.060161
0.060966 0.108001 0.055076
0.075755 0.107987 0.040279
0.099935 0.107813 0.027032
0.134168 0.111031 0.024587
0.168441 0.115350 0.023033
0.202748 0.120633 0.020941
0.237067 0.125908 0.018898
0.271392 0.131029 0.016961
0.305719 0.135989 0.015127
0.340046 0.140806 0.013381
0.374370 0.145503 0.011710
0.408690 0.150102 0.010104
0.443003 0.154620 0.008556
0.477307 0.159071 0.007060
0.511600 0.163469 0.005613
0.545880 0.167822 0.004214
0.580145 0.172138 0.002861
0.614400 0.176812 0.002087
0.648640 0.181697 0.001672
0.682854 0.186563 0.001293
0.717042 0.191414 0.000956
0.751200 0.196252 0.000663
0.785325 0.201082 0.000418
0.819416 0.205904 0.000226
0.853469 0.210722 0.000090
0.887476 0.215537 0.000015
0.920001 0.220147 0.000000
0.947108 0.223985 0.000000
0.966961 0.226792 0.000000
0.980165 0.228657 0.000000
0.988392 0.229818 0.000000
0.065762 0.141771 0.072669
0.065762 0.141771 0.072669
0.078224 0.141753 0.068698
0.091343 0.141738 0.055765
0.109298 0.141717 0.040001
0.134854 0.141485 0.027543
0.169127 0.144921 0.024364
0.203410 0.148244 0.023320
0.237735 0.153157 0.021368
0.272072 0.158459 0.019220
0.306411 0.163752 0.017126
0.340744 0.168946 0.015124
0.375070 0.174021 0.013217
0.409386 0.178981 0.011401
0.443689 0.183837 0.009671
0.477976 0.188602 0.008020
0.512247 0.193288 0.006444
0.546498 0.197908 0.004938
0.580728 0.202470 0.003502
0.614934 0.206984 0.002132
0.649116 0.211545 0.000957
0.683277 0.216633 0.000659
0.717404 0.221694 0.000412
0.751495 0.226731 0.000219
0.785548 0.231749 0.000085
0.819558 0.236751 0.000012
0.853529 0.241739 0.000000
0.887486 0.246707 0.000000
0.920001 0.251446 0.000000
0.947108 0.255384 0.000000
0.966961 0.258261 0.000000
0.980165 0.260171 0.000000
0.988392 0.261361 0.000000
0.082459 0.175502 0.085027
0.082459 0.175502 0.085027
0.095431 0.175481 0.081761
0.108380 0.175464 0.070574
0.123182 0.175447 0.055244
0.143599 0.175420 0.039816
0.169870 0.175131 0.027907
0.204162 0.178769 0.024030
0.238442 0.181545 0.023288
0.272755 0.185860 0.021670
0.307083 0.190966 0.019615
0.341407 0.196282 0.017483
0.375722 0.201593 0.015412
0.410021 0.206836 0.013431
0.444302 0.211992 0.011544
0.478563 0.217057 0.009753
0.512800 0.222035 0.008055
0.547012 0.226933 0.006449
0.581197 0.231761 0.004931
0.615352 0.236526 0.003499
0.649475 0.241236 0.002152
0.683563 0.245898 0.000890
0.717617 0.250768 0.000093
0.751632 0.256028 0.000015
0.785604 0.261259 0.000000
0.819566 0.266455 0.000000
0.853529 0.271618 0.000000
0.887486 0.276750 0.000000
0.920001 0.281637 0.000000
0.947108 0.285693 0.000000
0.966961 0.288654 0.000000
0.980165 0.290619 0.000000
0.988392 0.291841 0.000000
0.099203 0.209220 0.097312
0.099203 0.209220 0.097312
0.112561 0.209198 0.094535
0.125795 0.209180 0.084754
0.139203 0.209164 0.070521
0.156096 0.209144 0.054596
0.178254 0.209113 0.039753
0.204913 0.208771 0.028232
0.239202 0.212592 0.023759
0.273466 0.215221 0.023070
0.307745 0.218852 0.021872
0.342036 0.223607 0.020056
0.376321 0.228807 0.018024
0.410590 0.234143 0.015975
0.444837 0.239477 0.013997
0.479059 0.244765 0.012111
0.513252 0.249987 0.010325
0.547414 0.255139 0.008640
0.581543 0.260219 0.007058
0.615636 0.265232 0.005578
0.649690 0.270183 0.004200
0.683705 0.275079 0.002921
0.717679 0.279924 0.001740
0.751642 0.284716 0.000610
0.785604 0.289767 0.000000
0.819566 0.295154 0.000000
0.853529 0.300500 0.000000
0.887486 0.305807 0.000000
0.920001 0.310854 0.000000
0.947108 0.315039 0.000000
0.966961 0.318092 0.000000
0.980165 0.320116 0.000000
0.988392 0.321375 0.000000
0.115943 0.242940 0.109604
0.115943 0.242940 0.109604
0.129596 0.242918 0.107190
0.143241 0.242899 0.098528
0.156094 0.242885 0.085458
0.170956 0.242868 0.069979
0.189643 0.242845 0.054105
0.213037 0.242814 0.039848
0.239912 0.242423 0.028622
0.274176 0.246396 0.023754
0.308409 0.249131 0.022865
0.342634 0.252152 0.022072
0.376866 0.256474 0.020583
0.411087 0.261452 0.018764
0.445286 0.266719 0.016841
0.479457 0.272083 0.014940
0.513594 0.277449 0.013122
0.547695 0.282783 0.011403
0.581757 0.288069 0.009791
0.615777 0.293299 0.008289
0.649754 0.298472 0.006898
0.683717 0.303582 0.005573
0.717679 0.308627 0.004290
0.751642 0.313611 0.003043
0.785604 0.318538 0.001832
0.819566 0.323411 0.000653
0.853529 0.328540 0.000000
0.887486 0.334021 0.000000
0.920001 0.339232 0.000000
0.947108 0.343549 0.000000
0.966961 0.346695 0.000000
0.980165 0.348781 0.000000
0.988392 0.350079 0.000000
0.132626 0.276674 0.121982
0.132626 0.276674 0.121982
0.146506 0.276653 0.119852
0.160577 0.276635 0.112097
0.173287 0.276622 0.100101
0.186998 0.276608 0.085382
0.203389 0.276592 0.069468
0.223521 0.276569 0.053894
0.247788 0.276540 0.040156
0.274796 0.276102 0.029185
0.309011 0.280208 0.024065
0.343193 0.283061 0.022903
0.377353 0.285756 0.022391
0.411506 0.289604 0.021282
0.445641 0.294294 0.019756
0.479747 0.299416 0.018052
0.513816 0.304742 0.016312
0.547845 0.310142 0.014624
0.581829 0.315549 0.013031
0.615792 0.320929 0.011509
0.649754 0.326262 0.010029
0.683717 0.331539 0.008591
0.717679 0.336757 0.007194
0.751642 0.341916 0.005837
0.785604 0.347016 0.004518
0.819566 0.352061 0.003235
0.853529 0.357052 0.001984
0.887486 0.361992 0.000765
0.920001 0.366903 0.000000
0.947108 0.371347 0.000000
0.966961 0.374586 0.000000
0.980165 0.376732 0.000000
0.988392 0.378067 0.000000
0.149199 0.310436 0.134524
0.149199 0.310436 0.134524
0.163256 0.310418 0.132628
0.177725 0.310402 0.125624
0.190499 0.310391 0.114584
0.203579 0.310380 0.100704
0.218470 0.310368 0.085185
0.236237 0.310353 0.069231
0.257521 0.310334 0.054052
0.282411 0.310311 0.040767
0.309495 0.309829 0.030026
0.343639 0.314051 0.024762
0.377746 0.317033 0.023291
0.411826 0.319651 0.022958
0.445883 0.323014 0.022261
0.479912 0.327375 0.021083
0.513903 0.332298 0.019668
0.547867 0.337524 0.018143
0.581829 0.342894 0.016558
0.615792 0.348312 0.014969
0.649754 0.353727 0.013406
0.683717 0.359115 0.011876
0.717679 0.364463 0.010383
0.751642 0.369764 0.008927
0.785604 0.375014 0.007508
0.819566 0.380211 0.006126
0.853529 0.385356 0.004778
0.887486 0.390449 0.003464
0.920001 0.395280 0.002235
0.947108 0.399273 0.001230
0.966961 0.402179 0.000507
0.980165 0.404104 0.000030
0.988392 0.405455 0.000000
0.165610 0.344238 0.147310
0.165610 0.344238 0.147310
0.179805 0.344225 0.145615
0.194632 0.344213 0.139245
0.207571 0.344204 0.129050
0.220331 0.344197 0.115999
0.234250 0.344189 0.101060
0.250333 0.344180 0.085207
0.269280 0.344170 0.069416
0.291486 0.344157 0.054665
0.316822 0.344143 0.041779
0.343937 0.343619 0.031251
0.377986 0.347948 0.025928
0.411999 0.351069 0.024133
0.445979 0.353763 0.023934
0.479942 0.356703 0.023612
0.513904 0.360699 0.022737
0.547867 0.365362 0.021507
0.581829 0.370415 0.020070
0.615792 0.375687 0.018525
0.649754 0.381068 0.016936
0.683717 0.386487 0.015347
0.717679 0.391903 0.013782
0.751642 0.397297 0.012246
0.785604 0.402658 0.010742
0.819566 0.407977 0.009272
0.853529 0.413252 0.007836
0.887486 0.418480 0.006432
0.920001 0.423441 0.005119
0.947108 0.427544 0.004045
0.966961 0.430530 0.003271
0.980165 0.432508 0.002762
0.988392 0.433737 0.002447
0.181807 0.378094 0.160418
0.181807 0.378094 0.160418
0.196107 0.378087 0.158903
0.211250 0.378080 0.153080
0.224401 0.378076 0.143635
0.237030 0.378072 0.131367
0.250325 0.378069 0.117079
0.265217 0.378066 0.101574
0.282400 0.378063 0.085658
0.302343 0.378059 0.070137
0.325288 0.378056 0.055820
0.350938 0.378054 0.043289
0.378054 0.377490 0.032964
0.412017 0.381912 0.027608
0.445979 0.385162 0.025419
0.479942 0.387909 0.025201
0.513904 0.390600 0.025010
0.547867 0.394201 0.024344
0.581829 0.398569 0.023271
0.615792 0.403414 0.021943
0.649754 0.408550 0.020464
0.683717 0.413854 0.018905
0.717679 0.419243 0.017314
0.751642 0.424662 0.015725
0.785604 0.430080 0.014158
0.819566 0.435478 0.012617
0.853529 0.440848 0.011105
0.887486 0.446181 0.009624
0.920001 0.451251 0.008234
0.947108 0.455449 0.007096
0.966961 0.458506 0.006275
0.980165 0.460531 0.005735
0.988392 0.461790 0.005400
0.197736 0.412017 0.173927
0.197736 0.412017 0.173927
0.212118 0.412017 0.172576
0.227540 0.412017 0.167228
0.240922 0.412017 0.158444
0.253543 0.412017 0.146898
0.266456 0.412017 0.133264
0.280515 0.412017 0.118219
0.296387 0.412017 0.102436
0.314564 0.412017 0.086591
0.335370 0.412017 0.071358
0.358950 0.412017 0.057413
0.384868 0.412017 0.045126
0.412017 0.411401 0.034909
0.445979 0.415882 0.029417
0.479942 0.419240 0.026833
0.513904 0.422040 0.026473
0.547867 0.424662 0.026323
0.581829 0.427865 0.025865
0.615792 0.431921 0.024958
0.649754 0.436534 0.023755
0.683717 0.441503 0.022361
0.717679 0.446697 0.020853
0.751642 0.452023 0.019284
0.785604 0.457417 0.017692
0.819566 0.462838 0.016104
0.853529 0.468256 0.014534
0.887486 0.473657 0.012990
0.920001 0.478805 0.011535
0.947108 0.483076 0.010342
0.966965 0.486191 0.009473
0.980182 0.488257 0.008888
0.988422 0.489542 0.008519
0.213505 0.445979 0.187675
0.213505 0.445979 0.187675
0.227983 0.445979 0.186426
0.243679 0.445979 0.181455
0.257316 0.445979 0.173230
0.270016 0.445979 0.162323
0.282721 0.445979 0.149309
0.296211 0.445979 0.134761
0.311116 0.445979 0.119252
0.327927 0.445979 0.103355
0.347001 0.445979 0.087644
0.368558 0.445979 0.072693
0.392677 0.445979 0.059069
0.418811 0.445979 0.046978
0.445979 0.445311 0.036854
0.479942 0.449845 0.031247
0.513904 0.453302 0.028328
0.547867 0.456160 0.027748
0.581829 0.458824 0.027584
0.615792 0.461680 0.027306
0.649754 0.465416 0.026569
0.683717 0.469777 0.025500
0.717679 0.474557 0.024206
0.751642 0.479615 0.022767
0.785604 0.484851 0.021239
0.819566 0.490193 0.019663
0.853529 0.495592 0.018070
0.887486 0.501012 0.016482
0.920021 0.506203 0.014953
0.947186 0.510527 0.013640
0.967105 0.513690 0.012657
0.980363 0.515790 0.011995
0.988628 0.517097 0.011579
0.229275 0.479942 0.201423
0.229275 0.479942 0.201423
0.243835 0.479942 0.200261
0.259778 0.479942 0.195618
0.273666 0.479942 0.187888
0.286492 0.479942 0.177564
0.299100 0.479942 0.165140
0.312203 0.479942 0.151108
0.326391 0.479942 0.135963
0.342139 0.479942 0.120196
0.359817 0.479942 0.104301
0.379683 0.479942 0.088772
0.401890 0.479942 0.074102
0.426445 0.479942 0.060757
0.452765 0.479942 0.048843
0.479942 0.479221 0.038799
0.513904 0.483800 0.033094
0.547867 0.487348 0.029886
0.581829 0.490273 0.029024
0.615792 0.492975 0.028849
0.649754 0.495636 0.028673
0.683717 0.499046 0.028107
0.717679 0.503144 0.027178
0.751642 0.507718 0.025995
0.785604 0.512620 0.024638
0.819566 0.517743 0.023165
0.853542 0.523011 0.021606
0.887569 0.528375 0.019936
0.920204 0.533564 0.018255
0.947450 0.537910 0.016807
0.967426 0.541097 0.015726
0.980721 0.543217 0.014998
0.989008 0.544538 0.014542
0.245044 0.513904 0.215171
0.245044 0.513904 0.215171
0.259677 0.513904 0.214085
0.275843 0.513904 0.209730
0.289974 0.513904 0.202441
0.302953 0.513904 0.192647
0.315541 0.513904 0.180778
0.328390 0.513904 0.167261
0.342049 0.513904 0.152525
0.356974 0.513904 0.137000
0.373531 0.513904 0.121114
0.391997 0.513904 0.105295
0.412564 0.513904 0.089972
0.435336 0.513904 0.075575
0.460246 0.513904 0.062473
0.486727 0.513904 0.050717
0.513904 0.513131 0.040744
0.547867 0.517751 0.034954
0.581829 0.521382 0.031495
0.615792 0.524379 0.030301
0.649754 0.527114 0.030119
0.683717 0.529720 0.029975
0.717679 0.532806 0.029578
0.751642 0.536633 0.028792
0.785613 0.540990 0.027714
0.819636 0.545728 0.026371
0.853714 0.550736 0.024818
0.887840 0.555931 0.023103
0.920566 0.561024 0.021345
0.947882 0.565330 0.019813
0.967908 0.568506 0.018661
0.981234 0.570626 0.017883
0.989541 0.571949 0.017395
0.260814 0.547867 0.228919
0.260814 0.547867 0.228919
0.275511 0.547867 0.227900
0.291879 0.547867 0.223799
0.306242 0.547867 0.216905
0.319390 0.547867 0.207594
0.332011 0.547867 0.196243
0.344704 0.547867 0.183227
0.357978 0.547867 0.168923
0.372267 0.547867 0.153706
0.387925 0.547867 0.137954
0.405238 0.547867 0.122041
0.424419 0.547867 0.106345
0.445608 0.547867 0.091240
0.468874 0.547867 0.077103
0.494074 0.547867 0.064211
0.520695 0.547867 0.052600
0.547867 0.547041 0.042689
0.581829 0.551697 0.036825
0.615792 0.555404 0.033147
0.649754 0.558479 0.031603
0.683717 0.561243 0.031392
0.717696 0.563887 0.031213
0.751718 0.566697 0.030886
0.785787 0.570265 0.030108
0.819906 0.574415 0.028962
0.854075 0.578990 0.027529
0.888287 0.583871 0.025874
0.921089 0.588753 0.024128
0.948466 0.592936 0.022578
0.968533 0.596047 0.021399
0.981886 0.598134 0.020599
0.990210 0.599441 0.020094
0.276583 0.581829 0.242667
0.276583 0.581829 0.242667
0.291338 0.581829 0.241707
0.307889 0.581829 0.237832
0.322472 0.581829 0.231293
0.335796 0.581829 0.222423
0.348489 0.581829 0.211555
0.361098 0.581829 0.199020
0.374098 0.581829 0.185153
0.387896 0.581829 0.170284
0.402837 0.581829 0.154747
0.419203 0.581829 0.138875
0.437218 0.581829 0.122999
0.457044 0.581829 0.107453
0.478786 0.581829 0.092570
0.502487 0.581829 0.078681
0.527924 0.581829 0.065970
0.554669 0.581829 0.054490
0.581829 0.580952 0.044635
0.615793 0.585639 0.038702
0.649792 0.589421 0.034783
0.683834 0.592582 0.032825
0.717914 0.595398 0.032364
0.752031 0.598095 0.031998
0.786182 0.600762 0.031589
0.820377 0.604073 0.030794
0.854618 0.608007 0.029614
0.888898 0.612404 0.028136
0.921762 0.616936 0.026500
0.949186 0.620897 0.025006
0.969287 0.623879 0.023851
0.982662 0.625894 0.023060
0.990998 0.627161 0.022558
0.292352 0.615792 0.256415
0.292352 0.615792 0.256415
0.307158 0.615792 0.255508
0.323878 0.615792 0.251836
0.338668 0.615792 0.245618
0.352172 0.615792 0.237151
0.364961 0.615792 0.226732
0.377540 0.615792 0.214656
0.390349 0.615792 0.201219
0.403774 0.615792 0.186719
0.418143 0.615792 0.171450
0.433733 0.615792 0.155710
0.450769 0.615792 0.139794
0.469429 0.615792 0.123999
0.489841 0.615792 0.108619
0.512085 0.615793 0.093944
0.536190 0.615795 0.080266
0.561849 0.615799 0.067674
0.588746 0.615805 0.056259
0.615937 0.614883 0.046393
0.650043 0.619619 0.040219
0.684185 0.623485 0.035945
0.718357 0.626736 0.033540
0.752559 0.629610 0.032763
0.786789 0.632353 0.032243
0.821045 0.634991 0.031725
0.855336 0.638040 0.030948
0.889665 0.641750 0.029774
0.922573 0.645771 0.028358
0.950032 0.649394 0.027003
0.970157 0.652172 0.025928
0.983546 0.654068 0.025180
0.991891 0.655267 0.024702
0.308122 0.649754 0.270163
0.308122 0.649754 0.270163
0.322976 0.649754 0.269300
0.339856 0.649755 0.265801
0.354853 0.649757 0.259861
0.368548 0.649759 0.251749
0.381464 0.649760 0.241731
0.394065 0.649762 0.230073
0.406765 0.649764 0.217039
0.419923 0.649767 0.202894
0.433856 0.649769 0.187902
0.448832 0.649772 0.172328
0.465077 0.649776 0.156436
0.482777 0.649781 0.140489
0.502072 0.649787 0.124750
0.523063 0.649794 0.109482
0.545807 0.649804 0.094947
0.570312 0.649815 0.081406
0.596198 0.649828 0.068867
0.623262 0.649844 0.057473
0.650491 0.648877 0.047577
0.684729 0.653658 0.041183
0.718988 0.657600 0.036603
0.753267 0.660934 0.033810
0.787566 0.663869 0.032696
0.821886 0.666650 0.032055
0.856224 0.669330 0.031420
0.890580 0.672149 0.030677
0.923513 0.675470 0.029600
0.950991 0.678620 0.028473
0.971130 0.681105 0.027538
0.984528 0.682829 0.026872
0.992878 0.683928 0.026441
0.324092 0.683745 0.283652
0.324092 0.683745 0.283652
0.339031 0.683752 0.282777
0.356099 0.683759 0.279384
0.371317 0.683766 0.273661
0.385220 0.683773 0.265848
0.398289 0.683778 0.256183
0.410955 0.683784 0.244904
0.423604 0.683789 0.232247
0.436576 0.683794 0.218449
0.450171 0.683800 0.203748
0.464651 0.683807 0.188381
0.480238 0.683814 0.172585
0.497119 0.683823 0.156596
0.515442 0.683833 0.140652
0.535324 0.683845 0.124989
0.556840 0.683859 0.109844
0.580033 0.683875 0.095453
0.604878 0.683894 0.082035
0.630964 0.683915 0.069555
0.658173 0.683939 0.058189
0.685424 0.682926 0.048274
0.719767 0.687745 0.041699
0.754118 0.691755 0.036861
0.788480 0.695166 0.033736
0.822853 0.698164 0.032271
0.857239 0.700976 0.031541
0.891630 0.703694 0.030820
0.924571 0.706260 0.030125
0.952053 0.708780 0.029323
0.972194 0.710870 0.028594
0.985593 0.712359 0.028051
0.993944 0.713323 0.027692
0.340432 0.717789 0.296667
0.340432 0.717789 0.296667
0.355446 0.717801 0.295783
0.372683 0.717814 0.292489
0.388108 0.717826 0.286967
0.402210 0.717836 0.279432
0.415436 0.717846 0.270098
0.428186 0.717854 0.259178
0.440820 0.717862 0.246886
0.453660 0.717870 0.233435
0.466992 0.717878 0.219041
0.481066 0.717888 0.203915
0.496101 0.717897 0.188273
0.512281 0.717909 0.172328
0.529761 0.717922 0.156295
0.548664 0.717936 0.140387
0.569082 0.717953 0.124819
0.591074 0.717973 0.109805
0.614668 0.717995 0.095560
0.639800 0.718020 0.082257
0.666062 0.718047 0.069842
0.693394 0.718077 0.058512
0.720653 0.717017 0.048591
0.755074 0.721869 0.041873
0.789493 0.725939 0.036822
0.823912 0.729419 0.033417
0.858335 0.732481 0.031613
0.892757 0.735320 0.030808
0.925721 0.737954 0.030067
0.953204 0.740084 0.029470
0.973335 0.741675 0.029011
0.986728 0.742856 0.028636
0.995075 0.743641 0.028375
0.357080 0.751877 0.309286
0.357080 0.751877 0.309286
0.372158 0.751893 0.308398
0.389549 0.751911 0.305199
0.405164 0.751927 0.299865
0.419457 0.751941 0.292589
0.432840 0.751953 0.283566
0.445686 0.751964 0.272987
0.458334 0.751974 0.261048
0.471085 0.751985 0.247941
0.484213 0.751995 0.233860
0.497957 0.752006 0.218999
0.512529 0.752018 0.203553
0.528111 0.752031 0.187715
0.544860 0.752045 0.171680
0.562903 0.752062 0.155642
0.582341 0.752080 0.139798
0.603247 0.752102 0.124340
0.625669 0.752125 0.109466
0.649622 0.752152 0.095370
0.674994 0.752182 0.082177
0.701407 0.752214 0.069834
0.728843 0.752248 0.058550
0.756095 0.751139 0.048634
0.790567 0.756017 0.041812
0.825028 0.760140 0.036593
0.859481 0.763683 0.032958
0.893923 0.766804 0.030867
0.926900 0.769552 0.029998
0.954390 0.771776 0.029362
0.974523 0.773369 0.028908
0.987911 0.774411 0.028613
0.996252 0.775053 0.028433
0.373974 0.786000 0.321588
0.373974 0.786000 0.321588
0.389108 0.786020 0.320702
0.406635 0.786042 0.317595
0.422426 0.786060 0.312439
0.436899 0.786077 0.305407
0.450437 0.786092 0.296677
0.463388 0.786105 0.286425
0.476069 0.786117 0.274825
0.488767 0.786129 0.262055
0.501738 0.786140 0.248291
0.515214 0.786153 0.233710
0.529399 0.786166 0.218489
0.544471 0.786180 0.202804
0.560586 0.786195 0.186834
0.577873 0.786213 0.170756
0.596441 0.786232 0.154748
0.616371 0.786254 0.138988
0.637723 0.786278 0.123655
0.660531 0.786305 0.108928
0.684805 0.786335 0.094985
0.710373 0.786367 0.081898
0.736916 0.786402 0.069637
0.764435 0.786439 0.058409
0.791667 0.785279 0.048510
0.826163 0.790179 0.041621
0.860641 0.794347 0.036277
0.895097 0.797946 0.032460
0.928077 0.800993 0.030204
0.955565 0.803325 0.029310
0.975693 0.804979 0.028847
0.989078 0.806064 0.028543
0.997417 0.806733 0.028357
0.391053 0.820150 0.333653
0.391053 0.820150 0.333653
0.406232 0.820172 0.332775
0.423882 0.820196 0.329760
0.439834 0.820217 0.324773
0.454476 0.820236 0.317973
0.468164 0.820252 0.309522
0.481225 0.820267 0.299580
0.493955 0.820280 0.288309
0.506625 0.820293 0.275868
0.519480 0.820306 0.262421
0.532739 0.820319 0.248128
0.546600 0.820333 0.233152
0.561237 0.820347 0.217656
0.576802 0.820363 0.201801
0.593428 0.820380 0.185751
0.611223 0.820400 0.169669
0.630277 0.820421 0.153718
0.650659 0.820445 0.138062
0.672415 0.820471 0.122866
0.695570 0.820500 0.108293
0.720127 0.820531 0.094508
0.745852 0.820565 0.081526
0.772503 0.820600 0.069356
0.800087 0.820638 0.058195
0.827285 0.819426 0.048326
0.861780 0.824342 0.041408
0.896243 0.828549 0.035981
0.929219 0.832051 0.032167
0.956697 0.834667 0.030001
0.976815 0.836446 0.028987
0.990191 0.837579 0.028575
0.998524 0.838270 0.028391
0.408254 0.854317 0.345560
0.408254 0.854317 0.345560
0.423471 0.854340 0.344695
0.441228 0.854366 0.341773
0.457326 0.854389 0.336950
0.472126 0.854409 0.330372
0.485959 0.854426 0.322187
0.499131 0.854442 0.312543
0.511921 0.854456 0.301588
0.524584 0.854470 0.289469
0.537354 0.854483 0.276336
0.550440 0.854496 0.262337
0.564030 0.854510 0.247621
0.578296 0.854524 0.232338
0.593385 0.854539 0.216636
0.609429 0.854556 0.200667
0.626540 0.854575 0.184581
0.644810 0.854595 0.168527
0.664314 0.854617 0.152657
0.685108 0.854642 0.137122
0.707229 0.854669 0.122073
0.730694 0.854698 0.107662
0.755497 0.854729 0.094040
0.781347 0.854762 0.081167
0.808084 0.854797 0.069097
